;FLAVOR:Marlin
;TIME:2474
;Filament used: 1.31647m
;Layer height: 0.2
;MINX:89
;MINY:91.5
;MINZ:0.2
;MAXX:146
;MAXY:143.5
;MAXZ:8
;Generated with Cura_SteamEngine 5.4.0
M140 S50
M105
M190 S50
M104 S200
M105
M109 S200
M82 ;absolute extrusion mode
; Ender 3 Custom Start G-code
G92 E0 ; Reset Extruder
G28 ; Home all axes
G1 Z2.0 F3000 ; Move Z Axis up little to prevent scratching of Heat Bed
G1 X0.1 Y20 Z0.3 F5000.0 ; Move to start position
G1 X0.1 Y200.0 Z0.3 F1500.0 E15 ; Draw the first line
G1 X0.4 Y200.0 Z0.3 F5000.0 ; Move to side a little
G1 X0.4 Y20 Z0.3 F1500.0 E30 ; Draw the second line
G92 E0 ; Reset Extruder
G1 Z2.0 F3000 ; Move Z Axis up little to prevent scratching of Heat Bed
G1 X5 Y20 Z0.3 F5000.0 ; Move over to prevent blob squish
G92 E0
G92 E0
G1 F2700 E-5
;LAYER_COUNT:40
;LAYER:0
M107
G0 F6000 X92.854 Y95.286 Z0.2
;TYPE:SKIRT
G1 F2700 E0
G1 F1200 X93.563 Y94.639 E0.03192
G1 X94.292 Y94.048 E0.06314
G1 X95.108 Y93.496 E0.0959
G1 X95.383 Y93.328 E0.10662
G1 X96.201 Y92.877 E0.13769
G1 X96.892 Y92.562 E0.16295
G1 X97.215 Y92.43 E0.17455
G1 X98.126 Y92.102 E0.20676
G1 X98.944 Y91.88 E0.23495
G1 X99.94 Y91.681 E0.26873
G1 X100.49 Y91.612 E0.28717
G1 X101.023 Y91.56 E0.30498
G1 X101.926 Y91.508 E0.33506
G1 X102.557 Y91.5 E0.35605
G1 X132.307 Y91.5 E1.34554
G1 X133.388 Y91.519 E1.3815
G1 X134.368 Y91.582 E1.41416
G1 X135.51 Y91.768 E1.45265
G1 X136.033 Y91.883 E1.47046
G1 X136.942 Y92.125 E1.50174
G1 X137.931 Y92.488 E1.53678
G1 X138.246 Y92.622 E1.54817
G1 X139.089 Y93.025 E1.57925
G1 X139.712 Y93.384 E1.60316
G1 X139.99 Y93.557 E1.61405
G1 X140.803 Y94.114 E1.64683
G1 X141.459 Y94.647 E1.67494
G1 X142.142 Y95.279 E1.70589
G1 X142.564 Y95.728 E1.72639
G1 X142.873 Y96.076 E1.74187
G1 X143.484 Y96.834 E1.77425
G1 X143.998 Y97.598 E1.80487
G1 X144.167 Y97.875 E1.81567
G1 X144.633 Y98.721 E1.84779
G1 X144.946 Y99.411 E1.87299
G1 X145.077 Y99.733 E1.88455
G1 X145.403 Y100.643 E1.9167
G1 X145.62 Y101.444 E1.94431
G1 X145.819 Y102.44 E1.97809
G1 X145.889 Y102.998 E1.99679
G1 X145.94 Y103.52 E2.01424
G1 X145.992 Y104.425 E2.04439
G1 X146 Y105.067 E2.06574
G1 X145.999 Y129.94 E2.89302
G1 X145.983 Y130.868 E2.92389
G1 X145.921 Y131.849 E2.95658
G1 X145.734 Y133.001 E2.9954
G1 X145.619 Y133.527 E3.01331
G1 X145.366 Y134.469 E3.04575
G1 X145.023 Y135.406 E3.07894
G1 X144.897 Y135.705 E3.08973
G1 X144.511 Y136.521 E3.11975
G1 X144.109 Y137.225 E3.14672
G1 X143.929 Y137.514 E3.15804
G1 X143.399 Y138.285 E3.18916
G1 X142.879 Y138.928 E3.21666
G1 X142.212 Y139.651 E3.24938
G1 X141.772 Y140.064 E3.26945
G1 X141.424 Y140.373 E3.28493
G1 X140.723 Y140.942 E3.31496
G1 X139.904 Y141.497 E3.34787
G1 X139.632 Y141.663 E3.35846
G1 X138.786 Y142.129 E3.39059
G1 X138.123 Y142.43 E3.41481
G1 X137.795 Y142.566 E3.42662
G1 X136.884 Y142.895 E3.45883
G1 X136.056 Y143.12 E3.48737
G1 X135.06 Y143.319 E3.52115
G1 X134.51 Y143.388 E3.53959
G1 X133.977 Y143.44 E3.5574
G1 X133.074 Y143.492 E3.58748
G1 X132.443 Y143.5 E3.60847
G1 X102.693 Y143.5 E4.59796
G1 X101.612 Y143.481 E4.63392
G1 X100.632 Y143.418 E4.66658
G1 X99.49 Y143.232 E4.70507
G1 X98.966 Y143.117 E4.72291
G1 X98.057 Y142.875 E4.7542
G1 X97.079 Y142.517 E4.78884
G1 X96.796 Y142.397 E4.79906
G1 X95.935 Y141.987 E4.83078
G1 X95.254 Y141.595 E4.85691
G1 X94.964 Y141.413 E4.8683
G1 X94.167 Y140.863 E4.90051
G1 X93.498 Y140.316 E4.92925
G1 X92.837 Y139.7 E4.9593
G1 X92.428 Y139.264 E4.97918
G1 X92.122 Y138.918 E4.99455
G1 X91.512 Y138.16 E5.02691
G1 X90.99 Y137.384 E5.05801
G1 X90.822 Y137.106 E5.06882
G1 X90.358 Y136.26 E5.10091
G1 X90.051 Y135.582 E5.12566
G1 X89.92 Y135.262 E5.13717
G1 X89.604 Y134.38 E5.16833
G1 X89.355 Y133.45 E5.20035
G1 X89.182 Y132.564 E5.23037
G1 X89.109 Y131.988 E5.24968
G1 X89.059 Y131.473 E5.26689
G1 X89.008 Y130.574 E5.29684
G1 X89 Y129.943 E5.31783
G1 X89 Y105.18 E6.14145
G1 X89.019 Y104.109 E6.17708
G1 X89.082 Y103.129 E6.20974
G1 X89.266 Y101.998 E6.24785
G1 X89.38 Y101.476 E6.26562
G1 X89.633 Y100.534 E6.29807
G1 X89.977 Y99.594 E6.33136
G1 X90.103 Y99.295 E6.34215
G1 X90.489 Y98.479 E6.37217
G1 X90.9 Y97.762 E6.39966
G1 X91.082 Y97.47 E6.41111
G1 X91.613 Y96.698 E6.44227
G1 X92.157 Y96.03 E6.47092
G1 X92.854 Y95.286 E6.50483
G0 F6000 X93.124 Y95.581
G1 F1200 X93.815 Y94.95 E6.53595
G1 X94.544 Y94.359 E6.56717
G1 X95.317 Y93.837 E6.59819
G1 X95.577 Y93.678 E6.60833
G1 X96.367 Y93.241 E6.63836
G1 X97.044 Y92.932 E6.66311
G1 X97.351 Y92.806 E6.67414
G1 X98.231 Y92.488 E6.70527
G1 X99.049 Y92.266 E6.73346
G1 X99.99 Y92.078 E6.76537
G1 X100.529 Y92.01 E6.78344
G1 X101.046 Y91.959 E6.80072
G1 X101.931 Y91.908 E6.83021
G1 X102.562 Y91.9 E6.85119
G1 X132.3 Y91.9 E7.84028
G1 X133.363 Y91.918 E7.87564
G1 X134.304 Y91.977 E7.907
G1 X135.424 Y92.159 E7.94474
G1 X135.931 Y92.27 E7.96201
G1 X136.804 Y92.501 E7.99204
G1 X137.793 Y92.864 E8.02708
G1 X138.073 Y92.983 E8.0372
G1 X138.916 Y93.386 E8.06828
G1 X139.501 Y93.724 E8.09075
G1 X139.764 Y93.887 E8.10104
G1 X140.551 Y94.425 E8.13275
G1 X141.187 Y94.941 E8.15999
G1 X141.87 Y95.573 E8.19094
G1 X142.265 Y95.993 E8.21011
G1 X142.562 Y96.328 E8.225
G1 X143.152 Y97.057 E8.2562
G1 X143.657 Y97.807 E8.28627
G1 X143.817 Y98.068 E8.29645
G1 X144.269 Y98.886 E8.32754
G1 X144.576 Y99.562 E8.35223
G1 X144.701 Y99.868 E8.36322
G1 X145.017 Y100.748 E8.39432
G1 X145.234 Y101.549 E8.42192
G1 X145.422 Y102.49 E8.45384
G1 X145.491 Y103.037 E8.47218
G1 X145.541 Y103.543 E8.48909
G1 X145.592 Y104.43 E8.51864
G1 X145.6 Y105.067 E8.53983
G1 X145.599 Y129.933 E9.36688
G1 X145.584 Y130.843 E9.39715
G1 X145.526 Y131.785 E9.42854
G1 X145.343 Y132.916 E9.46664
G1 X145.232 Y133.424 E9.48394
G1 X144.99 Y134.332 E9.51519
G1 X144.654 Y135.251 E9.54774
G1 X144.535 Y135.534 E9.55795
G1 X144.149 Y136.35 E9.58797
G1 X143.77 Y137.013 E9.61337
G1 X143.599 Y137.287 E9.62411
G1 X143.069 Y138.058 E9.65523
G1 X142.568 Y138.676 E9.68169
G1 X141.918 Y139.38 E9.71356
G1 X141.507 Y139.765 E9.73229
G1 X141.172 Y140.062 E9.74718
G1 X140.471 Y140.631 E9.77721
G1 X139.695 Y141.156 E9.80837
G1 X139.439 Y141.313 E9.81836
G1 X138.621 Y141.765 E9.84945
G1 X137.969 Y142.061 E9.87326
G1 X137.659 Y142.19 E9.88443
G1 X136.779 Y142.509 E9.91556
G1 X135.951 Y142.734 E9.9441
G1 X135.01 Y142.922 E9.97602
G1 X134.471 Y142.99 E9.99409
G1 X133.954 Y143.041 E10.01137
G1 X133.069 Y143.092 E10.04085
G1 X132.438 Y143.1 E10.06184
G1 X102.7 Y143.1 E11.05093
G1 X101.637 Y143.082 E11.08629
G1 X100.696 Y143.023 E11.11765
G1 X99.576 Y142.841 E11.15539
G1 X99.069 Y142.73 E11.17265
G1 X98.16 Y142.488 E11.20394
G1 X97.234 Y142.148 E11.23675
G1 X96.968 Y142.036 E11.24635
G1 X96.107 Y141.626 E11.27806
G1 X95.466 Y141.256 E11.30268
G1 X95.191 Y141.084 E11.31347
G1 X94.42 Y140.553 E11.34461
G1 X93.771 Y140.023 E11.37248
G1 X93.11 Y139.407 E11.40253
G1 X92.727 Y138.998 E11.42116
G1 X92.433 Y138.667 E11.43589
G1 X91.844 Y137.937 E11.46709
G1 X91.332 Y137.176 E11.49759
G1 X91.172 Y136.913 E11.50783
G1 X90.722 Y136.095 E11.53888
G1 X90.421 Y135.431 E11.56313
G1 X90.297 Y135.127 E11.57405
G1 X89.981 Y134.245 E11.60521
G1 X89.748 Y133.373 E11.63523
G1 X89.575 Y132.487 E11.66526
G1 X89.507 Y131.949 E11.68329
G1 X89.458 Y131.45 E11.69997
G1 X89.408 Y130.569 E11.72932
G1 X89.4 Y129.938 E11.75031
G1 X89.4 Y105.187 E12.57353
G1 X89.418 Y104.134 E12.60856
G1 X89.477 Y103.193 E12.63992
G1 X89.657 Y102.083 E12.67732
G1 X89.767 Y101.579 E12.69448
G1 X90.009 Y100.671 E12.72573
G1 X90.346 Y99.749 E12.75838
G1 X90.465 Y99.466 E12.76859
G1 X90.851 Y98.65 E12.79862
G1 X91.239 Y97.974 E12.82454
G1 X91.412 Y97.697 E12.8354
G1 X91.943 Y96.925 E12.86657
G1 X92.467 Y96.283 E12.89413
G1 X93.124 Y95.581 E12.92611
G0 F6000 X93.394 Y95.876
G1 F1200 X92.777 Y96.536 E12.95616
G1 X92.253 Y97.178 E12.98372
G1 X91.742 Y97.923 E13.01377
G1 X91.578 Y98.186 E13.02408
G1 X91.213 Y98.821 E13.04844
G1 X90.827 Y99.637 E13.07846
G1 X90.715 Y99.904 E13.08809
G1 X90.385 Y100.808 E13.1201
G1 X90.154 Y101.681 E13.15013
G1 X90.048 Y102.168 E13.16671
G1 X89.872 Y103.257 E13.2034
G1 X89.817 Y104.158 E13.23342
G1 X89.8 Y105.194 E13.26789
G1 X89.8 Y129.933 E14.09071
G1 X89.808 Y130.564 E14.1117
G1 X89.857 Y131.427 E14.14045
G1 X89.905 Y131.909 E14.15656
G1 X89.968 Y132.41 E14.17335
G1 X90.141 Y133.296 E14.20338
G1 X90.367 Y134.142 E14.2325
G1 X90.673 Y134.992 E14.26255
G1 X90.791 Y135.279 E14.27287
G1 X91.086 Y135.93 E14.29664
G1 X91.522 Y136.72 E14.32665
G1 X91.673 Y136.967 E14.33628
G1 X92.176 Y137.713 E14.36621
G1 X92.744 Y138.415 E14.39624
G1 X93.026 Y138.733 E14.41038
G1 X93.383 Y139.114 E14.42775
G1 X94.044 Y139.73 E14.4578
G1 X94.673 Y140.243 E14.48479
G1 X95.417 Y140.754 E14.51481
G1 X95.678 Y140.917 E14.52505
G1 X96.307 Y141.28 E14.5492
G1 X97.123 Y141.667 E14.57924
G1 X97.389 Y141.779 E14.58884
G1 X98.298 Y142.112 E14.62104
G1 X99.171 Y142.343 E14.65107
G1 X99.661 Y142.45 E14.66776
G1 X100.76 Y142.628 E14.70478
G1 X101.661 Y142.683 E14.73481
G1 X102.707 Y142.7 E14.7696
G1 X132.433 Y142.7 E15.75829
G1 X133.064 Y142.692 E15.77928
G1 X133.931 Y142.642 E15.80817
G1 X134.421 Y142.593 E15.82455
G1 X134.96 Y142.525 E15.84261
G1 X135.846 Y142.348 E15.87267
G1 X136.674 Y142.123 E15.9012
G1 X137.522 Y141.814 E15.93122
G1 X137.816 Y141.692 E15.94181
G1 X138.455 Y141.401 E15.96516
G1 X139.245 Y140.963 E15.99521
G1 X139.486 Y140.815 E16.00461
G1 X140.219 Y140.32 E16.03403
G1 X140.92 Y139.751 E16.06406
G1 X141.241 Y139.466 E16.07834
G1 X141.644 Y139.088 E16.09671
G1 X142.257 Y138.424 E16.12677
G1 X142.758 Y137.806 E16.15323
G1 X143.269 Y137.061 E16.18328
G1 X143.43 Y136.802 E16.19342
G1 X143.787 Y136.179 E16.2173
G1 X144.173 Y135.363 E16.24733
G1 X144.285 Y135.096 E16.25696
G1 X144.614 Y134.195 E16.28886
G1 X144.845 Y133.322 E16.3189
G1 X144.952 Y132.831 E16.33561
G1 X145.131 Y131.721 E16.37301
G1 X145.185 Y130.819 E16.40306
G1 X145.199 Y129.927 E16.43273
G1 X145.2 Y105.067 E17.25958
G1 X145.192 Y104.435 E17.2806
G1 X145.142 Y103.566 E17.30955
G1 X145.093 Y103.077 E17.3259
G1 X145.025 Y102.54 E17.3439
G1 X144.848 Y101.654 E17.37395
G1 X144.631 Y100.853 E17.40155
G1 X144.325 Y100.003 E17.4316
G1 X144.206 Y99.714 E17.442
G1 X143.905 Y99.052 E17.46618
G1 X143.467 Y98.262 E17.49623
G1 X143.316 Y98.016 E17.50583
G1 X142.82 Y97.281 E17.53532
G1 X142.251 Y96.58 E17.56535
G1 X141.966 Y96.259 E17.57963
G1 X141.598 Y95.866 E17.59753
G1 X140.935 Y95.252 E17.62759
G1 X140.299 Y94.736 E17.65483
G1 X139.553 Y94.227 E17.68487
G1 X139.29 Y94.064 E17.69516
G1 X138.716 Y93.733 E17.7172
G1 X137.901 Y93.344 E17.74723
G1 X137.637 Y93.232 E17.75677
G1 X136.702 Y92.888 E17.78991
G1 X135.829 Y92.657 E17.81994
G1 X135.339 Y92.55 E17.83662
G1 X134.24 Y92.372 E17.87365
G1 X133.339 Y92.317 E17.90368
G1 X132.293 Y92.3 E17.93847
G1 X102.567 Y92.3 E18.92716
G1 X101.936 Y92.308 E18.94815
G1 X101.069 Y92.358 E18.97703
G1 X100.579 Y92.407 E18.99341
G1 X100.04 Y92.475 E19.01148
G1 X99.154 Y92.652 E19.04153
G1 X98.336 Y92.874 E19.06972
G1 X97.487 Y93.182 E19.09976
G1 X97.197 Y93.302 E19.1102
G1 X96.561 Y93.591 E19.13344
G1 X95.771 Y94.028 E19.16346
G1 X95.526 Y94.178 E19.17302
G1 X94.768 Y94.69 E19.20344
G1 X94.068 Y95.26 E19.23347
G1 X93.394 Y95.876 E19.26384
G1 F2700 E14.26384
;MESH:hopbanhrang2.STL
G0 F6000 X101.575 Y104.777
G0 X103.151 Y108.096
;TYPE:WALL-INNER
G1 F2700 E19.26384
G1 F1200 X102.466 Y107.857 E19.28797
G1 X102.04 Y107.515 E19.30614
G1 X101.788 Y107.213 E19.31922
G1 X101.607 Y106.922 E19.33062
G1 X101.421 Y106.302 E19.35215
G1 X101.393 Y105.733 E19.37109
G1 X101.548 Y105.213 E19.38914
G1 X101.736 Y104.864 E19.40233
G1 X101.908 Y104.629 E19.41201
G1 X102.297 Y104.251 E19.43005
G1 X102.949 Y103.95 E19.45394
G1 X103.501 Y103.896 E19.47238
G1 X103.902 Y103.941 E19.48581
G1 X104.242 Y104.037 E19.49756
G1 X104.521 Y104.16 E19.5077
G1 X104.817 Y104.359 E19.51956
G1 X105.206 Y104.736 E19.53758
G1 X105.451 Y105.215 E19.55547
G1 X105.608 Y105.733 E19.57348
G1 X105.579 Y106.292 E19.59209
G1 X105.47 Y106.793 E19.60915
G1 X105.171 Y107.271 E19.6279
G1 X104.968 Y107.502 E19.63813
G1 X104.535 Y107.854 E19.65669
G1 X104.039 Y108.031 E19.6742
G1 X103.726 Y108.088 E19.68478
G1 X103.151 Y108.096 E19.70391
G1 F2700 E14.70391
G0 F6000 X103.136 Y108.176
G0 X104.086 Y108.205
G0 X108.03 Y111.895
G0 X111.209 Y116.85
G1 F2700 E19.70391
G1 F1200 X110.629 Y116.805 E19.72326
G1 X110.044 Y116.654 E19.74335
G1 X109.559 Y116.437 E19.76103
G1 X109.072 Y116.111 E19.78052
G1 X108.657 Y115.711 E19.79969
G1 X108.324 Y115.263 E19.81825
G1 X108.064 Y114.75 E19.83738
G1 X107.894 Y114.178 E19.85723
G1 X107.827 Y113.649 E19.87497
G1 X107.851 Y113.072 E19.89417
G1 X107.98 Y112.496 E19.91381
G1 X108.174 Y112.011 E19.93118
G1 X108.477 Y111.509 E19.95068
G1 X108.85 Y111.088 E19.96939
G1 X109.315 Y110.714 E19.98924
G1 X109.792 Y110.449 E20.00739
G1 X110.304 Y110.266 E20.02547
G1 X110.883 Y110.16 E20.04505
G1 X111.466 Y110.16 E20.06444
G1 X112.018 Y110.255 E20.08307
G1 X112.556 Y110.445 E20.10205
G1 X113.056 Y110.725 E20.12111
G1 X113.495 Y111.077 E20.13982
G1 X113.87 Y111.506 E20.15877
G1 X114.169 Y111.993 E20.17778
G1 X114.378 Y112.519 E20.1966
G1 X114.494 Y113.047 E20.21459
G1 X114.522 Y113.616 E20.23353
G1 X114.449 Y114.216 E20.25364
G1 X114.288 Y114.742 E20.27193
G1 X114.026 Y115.261 E20.29127
G1 X113.694 Y115.709 E20.30982
G1 X113.278 Y116.109 E20.32901
G1 X112.828 Y116.417 E20.34715
G1 X112.289 Y116.66 E20.36681
G1 X111.744 Y116.801 E20.38554
G1 X111.209 Y116.85 E20.4034
G1 F2700 E15.4034
G0 F6000 X112.348 Y116.831
G0 X116.057 Y121.434
G0 X117.208 Y124.08
G1 F2700 E20.4034
G1 F1200 X116.74 Y123.914 E20.41992
G1 X116.373 Y123.631 E20.43533
G1 X116.236 Y123.475 E20.44224
G1 X116.005 Y123.086 E20.45729
G1 X115.894 Y122.548 E20.47556
G1 X115.972 Y122.007 E20.49374
G1 X116.212 Y121.536 E20.51132
G1 X116.598 Y121.167 E20.52908
G1 X117.07 Y120.953 E20.54632
G1 X117.381 Y120.904 E20.55679
G1 X117.92 Y120.949 E20.57478
G1 X118.387 Y121.161 E20.59184
G1 X118.79 Y121.539 E20.61021
G1 X119.041 Y122.04 E20.62885
G1 X119.104 Y122.576 E20.6468
G1 X118.99 Y123.103 E20.66474
G1 X118.707 Y123.566 E20.68278
G1 X118.304 Y123.885 E20.69988
G1 X118.01 Y124.022 E20.71067
G1 X117.542 Y124.103 E20.72646
G1 X117.208 Y124.08 E20.7376
G1 F2700 E15.7376
G0 F6000 X117.197 Y124.179
G0 X118.846 Y123.689
G0 X129.236 Y129.333
G0 X131.148 Y131.095
G1 F2700 E20.7376
G1 F1200 X130.468 Y130.859 E20.76154
G1 X130.045 Y130.519 E20.77959
G1 X129.846 Y130.293 E20.78961
G1 X129.61 Y129.929 E20.80403
G1 X129.416 Y129.302 E20.82586
G1 X129.394 Y128.756 E20.84404
G1 X129.549 Y128.219 E20.86263
G1 X129.71 Y127.902 E20.87445
G1 X129.92 Y127.61 E20.88642
G1 X130.321 Y127.238 E20.90461
G1 X130.801 Y127.017 E20.92218
G1 X131.184 Y126.926 E20.93528
G1 X131.503 Y126.896 E20.94593
G1 X131.9 Y126.941 E20.95922
G1 X132.149 Y127.005 E20.96777
G1 X132.513 Y127.156 E20.98088
G1 X132.817 Y127.36 E20.99306
G1 X133.207 Y127.737 E21.0111
G1 X133.452 Y128.217 E21.02902
G1 X133.608 Y128.731 E21.04689
G1 X133.58 Y129.292 E21.06557
G1 X133.472 Y129.789 E21.08249
G1 X133.198 Y130.238 E21.09998
G1 X132.976 Y130.495 E21.11128
G1 X132.532 Y130.86 E21.13039
G1 X132.082 Y131.018 E21.14626
G1 X131.691 Y131.095 E21.15951
G1 X131.148 Y131.095 E21.17757
G1 F2700 E16.17757
G0 F6000 X131.132 Y131.175
G0 X130.159 Y130.403
G0 X129.769 Y129.876
G0 X129.575 Y129.251
G0 X129.603 Y128.595
G0 X129.846 Y127.988
G0 X130.195 Y127.587
G0 X131.497 Y126.716
G0 X131.497 Y108.275
G0 X131.149 Y108.095
G1 F2700 E21.17757
G1 F1200 X130.455 Y107.85 E21.20205
G1 X130.022 Y107.492 E21.22074
G1 X129.833 Y107.277 E21.23026
G1 X129.617 Y106.93 E21.24385
G1 X129.416 Y106.306 E21.26566
G1 X129.393 Y105.735 E21.28466
G1 X129.546 Y105.219 E21.30257
