;FLAVOR:Marlin
;TIME:988
;Filament used: 0.527549m
;Layer height: 0.2
;MINX:104.775
;MINY:65.485
;MINZ:0.2
;MAXX:161.775
;MAXY:117.484
;MAXZ:3.4
;Generated with Cura_SteamEngine 5.4.0
M140 S50
M105
M190 S50
M104 S200
M105
M109 S200
M82 ;absolute extrusion mode
; Ender 3 Custom Start G-code
G92 E0 ; Reset Extruder
G28 ; Home all axes
G1 Z2.0 F3000 ; Move Z Axis up little to prevent scratching of Heat Bed
G1 X0.1 Y20 Z0.3 F5000.0 ; Move to start position
G1 X0.1 Y200.0 Z0.3 F1500.0 E15 ; Draw the first line
G1 X0.4 Y200.0 Z0.3 F5000.0 ; Move to side a little
G1 X0.4 Y20 Z0.3 F1500.0 E30 ; Draw the second line
G92 E0 ; Reset Extruder
G1 Z2.0 F3000 ; Move Z Axis up little to prevent scratching of Heat Bed
G1 X5 Y20 Z0.3 F5000.0 ; Move over to prevent blob squish
G92 E0
G92 E0
G1 F2700 E-5
;LAYER_COUNT:17
;LAYER:0
M107
G0 F6000 X106.804 Y71.538 Z0.2
;TYPE:SKIRT
G1 F2700 E0
G1 F1200 X107.349 Y70.741 E0.03211
G1 X107.905 Y70.05 E0.06161
G1 X108.592 Y69.299 E0.09547
G1 X109.178 Y68.755 E0.12206
G1 X109.439 Y68.531 E0.1335
G1 X110.199 Y67.934 E0.16564
G1 X110.834 Y67.511 E0.19102
G1 X111.138 Y67.325 E0.20287
G1 X111.984 Y66.858 E0.23501
G1 X112.667 Y66.547 E0.25998
G1 X112.99 Y66.415 E0.27158
G1 X113.901 Y66.087 E0.30378
G1 X114.719 Y65.865 E0.33198
G1 X115.715 Y65.666 E0.36576
G1 X116.265 Y65.597 E0.38419
G1 X116.798 Y65.545 E0.40201
G1 X117.701 Y65.493 E0.43209
G1 X118.332 Y65.485 E0.45308
G1 X148.082 Y65.485 E1.44257
G1 X149.163 Y65.504 E1.47853
G1 X150.143 Y65.567 E1.51119
G1 X151.285 Y65.753 E1.54967
G1 X151.808 Y65.868 E1.56748
G1 X152.717 Y66.11 E1.59877
G1 X153.706 Y66.473 E1.63381
G1 X154.021 Y66.607 E1.6452
G1 X154.864 Y67.01 E1.67627
G1 X155.487 Y67.369 E1.70019
G1 X155.765 Y67.542 E1.71108
G1 X156.55 Y68.079 E1.74271
G1 X157.121 Y68.535 E1.76702
G1 X157.373 Y68.752 E1.77808
G1 X158.053 Y69.392 E1.80914
G1 X158.56 Y69.949 E1.83419
G1 X158.787 Y70.216 E1.84584
G1 X159.342 Y70.929 E1.8759
G1 X159.783 Y71.599 E1.90257
G1 X159.968 Y71.904 E1.91444
G1 X160.418 Y72.723 E1.94552
G1 X160.721 Y73.394 E1.97001
G1 X160.847 Y73.703 E1.98111
G1 X161.175 Y74.616 E2.01337
G1 X161.417 Y75.518 E2.04443
G1 X161.591 Y76.404 E2.07447
G1 X161.664 Y76.983 E2.09388
G1 X161.715 Y77.505 E2.11132
G1 X161.767 Y78.41 E2.14147
G1 X161.775 Y79.052 E2.16282
G1 X161.774 Y103.925 E2.9901
G1 X161.758 Y104.853 E3.02097
G1 X161.696 Y105.834 E3.05367
G1 X161.509 Y106.986 E3.09248
G1 X161.394 Y107.512 E3.11039
G1 X161.141 Y108.454 E3.14283
G1 X160.798 Y109.391 E3.17602
G1 X160.672 Y109.69 E3.18681
G1 X160.286 Y110.506 E3.21684
G1 X159.884 Y111.21 E3.2438
G1 X159.704 Y111.499 E3.25512
G1 X159.174 Y112.27 E3.28624
G1 X158.654 Y112.913 E3.31375
G1 X157.987 Y113.636 E3.34646
G1 X157.547 Y114.049 E3.36654
G1 X157.199 Y114.358 E3.38201
G1 X156.441 Y114.969 E3.4144
G1 X155.677 Y115.483 E3.44502
G1 X155.4 Y115.652 E3.45582
G1 X154.551 Y116.12 E3.48806
G1 X153.747 Y116.481 E3.51737
G1 X152.847 Y116.815 E3.5493
G1 X152.294 Y116.978 E3.56848
G1 X151.845 Y117.096 E3.58392
G1 X150.963 Y117.288 E3.61394
G1 X149.711 Y117.434 E3.65586
G1 X149.213 Y117.464 E3.67246
G1 X148.589 Y117.482 E3.69322
G1 X118.299 Y117.484 E4.70067
G1 X117.483 Y117.469 E4.72781
G1 X116.511 Y117.413 E4.7602
G1 X115.451 Y117.264 E4.7958
G1 X114.758 Y117.114 E4.81938
G1 X113.839 Y116.858 E4.85111
G1 X113.254 Y116.65 E4.87176
G1 X112.806 Y116.474 E4.88777
G1 X111.948 Y116.092 E4.91901
G1 X111.023 Y115.577 E4.95422
G1 X110.75 Y115.406 E4.96494
G1 X110.005 Y114.895 E4.99498
G1 X109.285 Y114.31 E5.02584
G1 X108.603 Y113.676 E5.05681
G1 X108.215 Y113.263 E5.07566
G1 X107.9 Y112.906 E5.09149
G1 X107.289 Y112.148 E5.12387
G1 X106.765 Y111.369 E5.1551
G1 X106.597 Y111.091 E5.1659
G1 X106.133 Y110.245 E5.198
G1 X105.826 Y109.567 E5.22275
G1 X105.695 Y109.247 E5.23425
G1 X105.379 Y108.365 E5.26541
G1 X105.13 Y107.435 E5.29743
G1 X104.957 Y106.549 E5.32746
G1 X104.884 Y105.973 E5.34677
G1 X104.834 Y105.458 E5.36398
G1 X104.783 Y104.559 E5.39393
G1 X104.775 Y103.918 E5.41525
G1 X104.777 Y78.974 E6.24489
G1 X104.795 Y78.078 E6.2747
G1 X104.859 Y77.099 E6.30733
G1 X105.042 Y75.981 E6.34501
G1 X105.155 Y75.463 E6.36264
G1 X105.408 Y74.521 E6.39508
G1 X105.752 Y73.579 E6.42844
G1 X105.878 Y73.28 E6.43923
G1 X106.264 Y72.464 E6.46925
G1 X106.647 Y71.791 E6.49501
G1 X106.804 Y71.538 E6.50491
G0 F6000 X107.134 Y71.764
G1 F1200 X107.661 Y70.992 E6.536
G1 X108.217 Y70.301 E6.5655
G1 X108.864 Y69.592 E6.59742
G1 X109.439 Y69.058 E6.62352
G1 X109.686 Y68.845 E6.63437
G1 X110.421 Y68.267 E6.66547
G1 X111.043 Y67.852 E6.69034
G1 X111.332 Y67.675 E6.70161
G1 X112.15 Y67.222 E6.73271
G1 X112.819 Y66.917 E6.75717
G1 X113.126 Y66.791 E6.76821
G1 X114.006 Y66.473 E6.79933
G1 X114.824 Y66.251 E6.82752
G1 X115.765 Y66.063 E6.85943
G1 X116.304 Y65.995 E6.8775
G1 X116.821 Y65.944 E6.89478
G1 X117.706 Y65.893 E6.92427
G1 X118.337 Y65.885 E6.94526
G1 X148.075 Y65.885 E7.93435
G1 X149.138 Y65.903 E7.96971
G1 X150.079 Y65.962 E8.00107
G1 X151.199 Y66.144 E8.03881
G1 X151.706 Y66.255 E8.05607
G1 X152.579 Y66.486 E8.0861
G1 X153.568 Y66.849 E8.12114
G1 X153.848 Y66.968 E8.13126
G1 X154.691 Y67.371 E8.16234
G1 X155.276 Y67.709 E8.18481
G1 X155.539 Y67.872 E8.1951
G1 X156.324 Y68.409 E8.22674
G1 X156.86 Y68.838 E8.24957
G1 X157.099 Y69.044 E8.26006
G1 X157.757 Y69.662 E8.29009
G1 X158.255 Y70.208 E8.31467
G1 X158.471 Y70.462 E8.32576
G1 X159.026 Y71.175 E8.35581
G1 X159.441 Y71.806 E8.38093
G1 X159.617 Y72.097 E8.39224
G1 X160.067 Y72.916 E8.42332
G1 X160.351 Y73.546 E8.44631
G1 X160.471 Y73.839 E8.45684
G1 X160.789 Y74.72 E8.48799
G1 X161.024 Y75.595 E8.51812
G1 X161.198 Y76.481 E8.54816
G1 X161.266 Y77.022 E8.56629
G1 X161.316 Y77.528 E8.5832
G1 X161.367 Y78.415 E8.61275
G1 X161.375 Y79.052 E8.63394
G1 X161.374 Y103.918 E9.46099
G1 X161.359 Y104.828 E9.49126
G1 X161.301 Y105.77 E9.52265
G1 X161.118 Y106.901 E9.56075
G1 X161.007 Y107.409 E9.57805
G1 X160.765 Y108.317 E9.6093
G1 X160.429 Y109.236 E9.64185
G1 X160.31 Y109.519 E9.65206
G1 X159.924 Y110.335 E9.68208
G1 X159.545 Y110.998 E9.70748
G1 X159.374 Y111.272 E9.71823
G1 X158.844 Y112.043 E9.74934
G1 X158.343 Y112.661 E9.7758
G1 X157.693 Y113.365 E9.80767
G1 X157.282 Y113.75 E9.8264
G1 X156.947 Y114.047 E9.8413
G1 X156.218 Y114.637 E9.87249
G1 X155.468 Y115.142 E9.90256
G1 X155.207 Y115.302 E9.91274
G1 X154.387 Y115.755 E9.9439
G1 X153.607 Y116.106 E9.97235
G1 X152.734 Y116.431 E10.00333
G1 X152.192 Y116.591 E10.02213
G1 X151.76 Y116.705 E10.03699
G1 X150.878 Y116.897 E10.06701
G1 X149.687 Y117.035 E10.10689
G1 X149.201 Y117.064 E10.12308
G1 X148.589 Y117.082 E10.14345
G1 X118.306 Y117.084 E11.15066
G1 X117.506 Y117.07 E11.17728
G1 X116.566 Y117.017 E11.20859
G1 X115.536 Y116.873 E11.24318
G1 X114.843 Y116.723 E11.26676
G1 X113.973 Y116.481 E11.2968
G1 X113.4 Y116.277 E11.31703
G1 X112.968 Y116.108 E11.33246
G1 X112.142 Y115.742 E11.36251
G1 X111.235 Y115.238 E11.39702
G1 X110.976 Y115.076 E11.40718
G1 X110.231 Y114.565 E11.43723
G1 X109.557 Y114.017 E11.46612
G1 X108.895 Y113.402 E11.49617
G1 X108.507 Y112.989 E11.51502
G1 X108.211 Y112.655 E11.52986
G1 X107.621 Y111.925 E11.56108
G1 X107.107 Y111.161 E11.59171
G1 X106.947 Y110.898 E11.60195
G1 X106.497 Y110.08 E11.633
G1 X106.196 Y109.416 E11.65725
G1 X106.072 Y109.112 E11.66817
G1 X105.756 Y108.23 E11.69933
G1 X105.523 Y107.358 E11.72935
G1 X105.35 Y106.472 E11.75937
G1 X105.282 Y105.934 E11.77741
G1 X105.233 Y105.435 E11.79409
G1 X105.183 Y104.554 E11.82344
G1 X105.175 Y103.918 E11.84459
G1 X105.177 Y78.982 E12.67396
G1 X105.194 Y78.103 E12.70321
G1 X105.254 Y77.163 E12.73453
G1 X105.433 Y76.066 E12.7715
G1 X105.542 Y75.566 E12.78852
G1 X105.784 Y74.658 E12.81978
G1 X106.121 Y73.734 E12.85249
G1 X106.24 Y73.451 E12.8627
G1 X106.626 Y72.635 E12.89273
G1 X106.988 Y72.001 E12.91701
G1 X107.134 Y71.764 E12.92627
G0 F6000 X107.465 Y71.989
G1 F1200 X107.973 Y71.243 E12.95628
G1 X108.529 Y70.552 E12.98578
G1 X109.137 Y69.885 E13.0158
G1 X109.7 Y69.361 E13.04138
G1 X109.934 Y69.159 E13.05166
G1 X110.643 Y68.6 E13.08169
G1 X111.253 Y68.193 E13.10608
G1 X111.526 Y68.025 E13.11675
G1 X112.316 Y67.586 E13.14681
G1 X112.972 Y67.287 E13.17078
G1 X113.262 Y67.167 E13.18122
G1 X114.111 Y66.859 E13.21126
G1 X114.929 Y66.637 E13.23945
G1 X115.815 Y66.46 E13.2695
G1 X116.354 Y66.392 E13.28757
G1 X116.844 Y66.343 E13.30395
G1 X117.711 Y66.293 E13.33283
G1 X118.342 Y66.285 E13.35382
G1 X148.068 Y66.285 E14.34251
G1 X149.114 Y66.302 E14.37731
G1 X150.015 Y66.357 E14.40733
G1 X151.114 Y66.535 E14.44436
G1 X151.604 Y66.642 E14.46104
G1 X152.477 Y66.873 E14.49108
G1 X153.412 Y67.217 E14.52421
G1 X153.676 Y67.329 E14.53375
G1 X154.491 Y67.718 E14.56379
G1 X155.065 Y68.049 E14.58583
G1 X155.328 Y68.212 E14.59612
G1 X156.074 Y68.721 E14.62616
G1 X156.599 Y69.142 E14.64854
G1 X156.825 Y69.336 E14.65844
G1 X157.483 Y69.954 E14.68847
G1 X157.95 Y70.467 E14.71154
G1 X158.155 Y70.708 E14.72207
G1 X158.71 Y71.421 E14.75212
G1 X159.099 Y72.014 E14.77571
G1 X159.267 Y72.29 E14.78645
G1 X159.702 Y73.081 E14.81648
G1 X159.981 Y73.699 E14.83903
G1 X160.095 Y73.975 E14.84896
G1 X160.403 Y74.824 E14.879
G1 X160.631 Y75.672 E14.90821
G1 X160.805 Y76.558 E14.93824
G1 X160.868 Y77.062 E14.95513
G1 X160.917 Y77.551 E14.97148
G1 X160.967 Y78.42 E15.00043
G1 X160.975 Y79.052 E15.02145
G1 X160.974 Y103.912 E15.8483
G1 X160.96 Y104.804 E15.87797
G1 X160.906 Y105.706 E15.90802
G1 X160.727 Y106.816 E15.94542
G1 X160.62 Y107.307 E15.96213
G1 X160.389 Y108.18 E15.99217
G1 X160.06 Y109.081 E16.02407
G1 X159.948 Y109.348 E16.0337
G1 X159.562 Y110.164 E16.06372
G1 X159.205 Y110.787 E16.08761
G1 X159.044 Y111.046 E16.09775
G1 X158.533 Y111.791 E16.1278
G1 X158.032 Y112.409 E16.15426
G1 X157.419 Y113.073 E16.18432
G1 X157.016 Y113.451 E16.20269
G1 X156.695 Y113.736 E16.21697
G1 X155.994 Y114.305 E16.247
G1 X155.259 Y114.801 E16.27649
G1 X155.013 Y114.952 E16.28609
G1 X154.223 Y115.39 E16.31614
G1 X153.467 Y115.731 E16.34372
G1 X152.621 Y116.047 E16.37376
G1 X152.09 Y116.204 E16.39217
G1 X151.675 Y116.314 E16.40645
G1 X150.793 Y116.506 E16.43648
G1 X149.663 Y116.636 E16.47431
G1 X149.189 Y116.664 E16.4901
G1 X148.589 Y116.682 E16.51006
G1 X118.313 Y116.684 E17.51705
G1 X117.528 Y116.671 E17.54316
G1 X116.621 Y116.621 E17.57337
G1 X115.62 Y116.482 E17.60699
G1 X114.95 Y116.338 E17.62978
G1 X114.08 Y116.096 E17.65982
G1 X113.545 Y115.904 E17.67872
G1 X113.13 Y115.742 E17.69354
G1 X112.304 Y115.376 E17.72359
G1 X111.446 Y114.898 E17.75625
G1 X111.202 Y114.746 E17.76582
G1 X110.457 Y114.235 E17.79586
G1 X109.829 Y113.724 E17.82279
G1 X109.167 Y113.109 E17.85284
G1 X108.806 Y112.723 E17.87042
G1 X108.522 Y112.403 E17.88465
G1 X107.953 Y111.701 E17.91471
G1 X107.448 Y110.952 E17.94475
G1 X107.297 Y110.705 E17.95438
G1 X106.861 Y109.915 E17.98439
G1 X106.566 Y109.264 E18.00817
G1 X106.448 Y108.977 E18.01849
G1 X106.142 Y108.127 E18.04853
G1 X105.916 Y107.281 E18.07766
G1 X105.743 Y106.395 E18.10768
G1 X105.68 Y105.894 E18.12448
G1 X105.632 Y105.412 E18.14059
G1 X105.583 Y104.549 E18.16934
G1 X105.575 Y103.918 E18.19033
G1 X105.577 Y78.989 E19.01947
G1 X105.593 Y78.128 E19.04811
G1 X105.649 Y77.227 E19.07814
G1 X105.824 Y76.151 E19.11439
G1 X105.929 Y75.668 E19.13083
G1 X106.16 Y74.795 E19.16087
G1 X106.49 Y73.889 E19.19294
G1 X106.602 Y73.622 E19.20257
G1 X106.988 Y72.806 E19.23259
G1 X107.328 Y72.211 E19.25539
G1 X107.465 Y71.989 E19.26406
G1 F2700 E14.26406
;MESH:tamgiuahopbanhrang.STL
G0 F6000 X117.16 Y79.479
G0 X118.933 Y81.965
;TYPE:WALL-INNER
G1 F2700 E19.26406
G1 F1200 X118.294 Y81.739 E19.28661
G1 X117.848 Y81.378 E19.30569
G1 X117.56 Y81.027 E19.32079
G1 X117.318 Y80.431 E19.34219
G1 X117.276 Y80.045 E19.3551
G1 X117.352 Y79.401 E19.37667
G1 X117.647 Y78.816 E19.39846
G1 X117.911 Y78.52 E19.41165
G1 X118.429 Y78.164 E19.43256
G1 X118.817 Y78.038 E19.44613
G1 X119.456 Y77.985 E19.46745
G1 X120.102 Y78.152 E19.48964
G1 X120.655 Y78.526 E19.51185
G1 X120.937 Y78.882 E19.52695
G1 X121.197 Y79.398 E19.54617
G1 X121.282 Y80.069 E19.56867
G1 X121.131 Y80.747 E19.59177
G1 X120.777 Y81.319 E19.61414
G1 X120.243 Y81.745 E19.63686
G1 X119.594 Y81.965 E19.65966
G1 X118.933 Y81.965 E19.68164
G1 F2700 E14.68164
G0 F6000 X118.716 Y81.995
G0 X120.352 Y81.897
G0 X137.859 Y87.896
G0 X139.325 Y89.071
G1 F2700 E19.68164
G1 F1200 X138.867 Y88.908 E19.69781
G1 X138.576 Y88.725 E19.70924
G1 X138.232 Y88.333 E19.72659
G1 X138.045 Y87.865 E19.74335
G1 X138.001 Y87.545 E19.7541
G1 X138.058 Y87.059 E19.77037
G1 X138.18 Y86.747 E19.78151
G1 X138.498 Y86.317 E19.7993
G1 X138.871 Y86.062 E19.81433
G1 X139.212 Y85.926 E19.82654
G1 X139.726 Y85.882 E19.8437
G1 X140.255 Y86.015 E19.86184
G1 X140.723 Y86.332 E19.88064
G1 X141.017 Y86.74 E19.89737
G1 X141.141 Y87.037 E19.90807
G1 X141.206 Y87.526 E19.92448
G1 X141.159 Y87.847 E19.93527
G1 X140.989 Y88.278 E19.95068
G1 X140.8 Y88.553 E19.96178
G1 X140.39 Y88.888 E19.97939
G1 X139.867 Y89.07 E19.99781
G1 X139.325 Y89.071 E20.01583
G1 F2700 E15.01583
G0 F6000 X139.113 Y89.102
G0 X140.31 Y88.743
G0 X140.674 Y88.447
G0 X140.839 Y88.221
G0 X141.005 Y87.807
G0 X141.042 Y87.522
G0 X140.984 Y87.079
G0 X140.765 Y86.69
G0 X140.923 Y86.27
G0 X145.66 Y81.46
G0 X146.917 Y81.959
G1 F2700 E20.01583
G1 F1200 X146.302 Y81.739 E20.03756
G1 X145.792 Y81.327 E20.05936
G1 X145.55 Y81.006 E20.07273
G1 X145.324 Y80.431 E20.09328
G1 X145.27 Y80.048 E20.10615
G1 X145.353 Y79.398 E20.12794
G1 X145.613 Y78.882 E20.14716
G1 X145.896 Y78.524 E20.16234
G1 X146.431 Y78.163 E20.1838
G1 X146.817 Y78.038 E20.1973
G1 X147.456 Y77.985 E20.21863
G1 X148.103 Y78.152 E20.24085
G1 X148.641 Y78.519 E20.26251
G1 X148.906 Y78.822 E20.2759
G1 X149.198 Y79.401 E20.29747
G1 X149.278 Y80.089 E20.3205
G1 X149.138 Y80.736 E20.34252
G1 X148.788 Y81.309 E20.36485
G1 X148.258 Y81.738 E20.38753
G1 X147.713 Y81.931 E20.40676
G1 X147.512 Y81.965 E20.41354
G1 X146.917 Y81.959 E20.43333
G1 F2700 E15.43333
G0 F6000 X147.327 Y100.812
G0 X146.933 Y104.965
G1 F2700 E20.43333
G1 F1200 X146.294 Y104.739 E20.45588
G1 X145.848 Y104.378 E20.47496
G1 X145.559 Y104.027 E20.49008
G1 X145.317 Y103.428 E20.51157
G1 X145.273 Y103.025 E20.52505
G1 X145.351 Y102.421 E20.54531
G1 X145.652 Y101.806 E20.56808
G1 X145.928 Y101.506 E20.58164
G1 X146.419 Y101.171 E20.60141
G1 X146.806 Y101.041 E20.61499
G1 X147.443 Y100.983 E20.63626
G1 X148.1 Y101.151 E20.65882
G1 X148.579 Y101.474 E20.67804
G1 X148.894 Y101.8 E20.69311
G1 X149.198 Y102.4 E20.71548
G1 X149.278 Y103.089 E20.73855
G1 X149.137 Y103.737 E20.76061
G1 X148.782 Y104.315 E20.78317
G1 X148.256 Y104.739 E20.80564
G1 X147.616 Y104.965 E20.82822
G1 X146.933 Y104.965 E20.85093
G1 F2700 E15.85093
G0 F6000 X146.718 Y104.996
G0 X145.736 Y104.52
G0 X136.986 Y104.447
G0 X132.072 Y105.001
G1 F2700 E20.85093
G1 F1200 X130.844 Y104.734 E20.89273
G1 X129.682 Y104.299 E20.934
G1 X128.586 Y103.694 E20.97564
G1 X127.589 Y102.937 E21.01727
G1 X126.657 Y101.976 E21.0618
G1 X125.936 Y100.97 E21.10297
G1 X125.37 Y99.875 E21.14396
G1 X124.964 Y98.704 E21.18518
G1 X124.732 Y97.478 E21.22669
G1 X124.68 Y96.261 E21.2672
G1 X124.799 Y95.03 E21.30833
G1 X125.128 Y93.733 E21.35284
G1 X125.577 Y92.653 E21.39174
G1 X126.26 Y91.513 E21.43594
G1 X126.997 Y90.609 E21.47473
G1 X127.936 Y89.741 E21.51726
G1 X129.168 Y88.902 E21.56684
G1 X129.456 Y88.581 E21.58118
G1 X129.638 Y88.169 E21.59617
G1 X129.677 Y87.942 E21.60383
G1 X129.701 Y87.047 E21.6336
G1 X129.819 Y86.474 E21.65306
G1 X130.028 Y85.931 E21.67241
G1 X130.347 Y85.391 E21.69327
G1 X130.755 Y84.909 E21.71428
G1 X131.24 Y84.511 E21.73515
G1 X131.774 Y84.209 E21.75555
G1 X132.363 Y84 E21.77634
