;FLAVOR:Marlin
;TIME:2827
;Filament used: 1.44581m
;Layer height: 0.2
;MINX:89
;MINY:91.5
;MINZ:0.2
;MAXX:146
;MAXY:143.5
;MAXZ:8.4
;Generated with Cura_SteamEngine 5.4.0
M140 S50
M105
M190 S50
M104 S200
M105
M109 S200
M82 ;absolute extrusion mode
; Ender 3 Custom Start G-code
G92 E0 ; Reset Extruder
G28 ; Home all axes
G1 Z2.0 F3000 ; Move Z Axis up little to prevent scratching of Heat Bed
G1 X0.1 Y20 Z0.3 F5000.0 ; Move to start position
G1 X0.1 Y200.0 Z0.3 F1500.0 E15 ; Draw the first line
G1 X0.4 Y200.0 Z0.3 F5000.0 ; Move to side a little
G1 X0.4 Y20 Z0.3 F1500.0 E30 ; Draw the second line
G92 E0 ; Reset Extruder
G1 Z2.0 F3000 ; Move Z Axis up little to prevent scratching of Heat Bed
G1 X5 Y20 Z0.3 F5000.0 ; Move over to prevent blob squish
G92 E0
G92 E0
G1 F2700 E-5
;LAYER_COUNT:42
;LAYER:0
M107
G0 F6000 X92.854 Y95.286 Z0.2
;TYPE:SKIRT
G1 F2700 E0
G1 F1200 X93.563 Y94.639 E0.03192
G1 X94.292 Y94.048 E0.06314
G1 X95.108 Y93.496 E0.0959
G1 X95.383 Y93.328 E0.10662
G1 X96.201 Y92.877 E0.13769
G1 X96.892 Y92.562 E0.16295
G1 X97.215 Y92.43 E0.17455
G1 X98.126 Y92.102 E0.20676
G1 X98.944 Y91.88 E0.23495
G1 X99.94 Y91.681 E0.26873
G1 X100.49 Y91.612 E0.28717
G1 X101.023 Y91.56 E0.30498
G1 X101.926 Y91.508 E0.33506
G1 X102.567 Y91.5 E0.35638
G1 X132.48 Y91.501 E1.3513
G1 X133.398 Y91.518 E1.38183
G1 X134.376 Y91.582 E1.41443
G1 X135.494 Y91.762 E1.4521
G1 X135.99 Y91.869 E1.46897
G1 X136.931 Y92.121 E1.50137
G1 X137.868 Y92.462 E1.53454
G1 X138.171 Y92.589 E1.54546
G1 X139.016 Y92.987 E1.57653
G1 X139.688 Y93.371 E1.60227
G1 X139.993 Y93.56 E1.61421
G1 X140.794 Y94.107 E1.64647
G1 X141.459 Y94.647 E1.67496
G1 X142.142 Y95.279 E1.70591
G1 X142.564 Y95.728 E1.7264
G1 X142.873 Y96.076 E1.74188
G1 X143.484 Y96.834 E1.77426
G1 X143.998 Y97.598 E1.80489
G1 X144.167 Y97.875 E1.81568
G1 X144.633 Y98.721 E1.84781
G1 X144.946 Y99.411 E1.87301
G1 X145.077 Y99.733 E1.88457
G1 X145.403 Y100.643 E1.91672
G1 X145.62 Y101.444 E1.94432
G1 X145.819 Y102.44 E1.9781
G1 X145.889 Y102.998 E1.99681
G1 X145.94 Y103.52 E2.01425
G1 X145.992 Y104.425 E2.0444
G1 X146 Y105.067 E2.06576
G1 X145.999 Y129.938 E2.89297
G1 X145.983 Y130.878 E2.92424
G1 X145.921 Y131.856 E2.95683
G1 X145.737 Y132.999 E2.99534
G1 X145.629 Y133.496 E3.01226
G1 X145.377 Y134.438 E3.04469
G1 X145.029 Y135.39 E3.0784
G1 X144.907 Y135.68 E3.08887
G1 X144.485 Y136.567 E3.12154
G1 X144.148 Y137.159 E3.14419
G1 X143.963 Y137.458 E3.15589
G1 X143.437 Y138.233 E3.18704
G1 X142.845 Y138.966 E3.21838
G1 X142.212 Y139.651 E3.2494
G1 X141.772 Y140.064 E3.26947
G1 X141.424 Y140.373 E3.28495
G1 X140.723 Y140.942 E3.31498
G1 X139.904 Y141.497 E3.34788
G1 X139.632 Y141.663 E3.35848
G1 X138.786 Y142.129 E3.39061
G1 X138.123 Y142.43 E3.41482
G1 X137.795 Y142.566 E3.42663
G1 X136.884 Y142.895 E3.45885
G1 X136.056 Y143.12 E3.48739
G1 X135.06 Y143.319 E3.52117
G1 X134.51 Y143.388 E3.53961
G1 X133.977 Y143.44 E3.55742
G1 X133.074 Y143.492 E3.5875
G1 X132.433 Y143.5 E3.60882
G1 X102.52 Y143.499 E4.60373
G1 X101.602 Y143.482 E4.63427
G1 X100.624 Y143.418 E4.66687
G1 X99.506 Y143.238 E4.70453
G1 X99.01 Y143.131 E4.72141
G1 X98.068 Y142.879 E4.75384
G1 X97.104 Y142.527 E4.78798
G1 X96.796 Y142.397 E4.79909
G1 X95.98 Y142.011 E4.82912
G1 X95.305 Y141.625 E4.85498
G1 X95.004 Y141.439 E4.86675
G1 X94.204 Y140.891 E4.899
G1 X93.55 Y140.361 E4.927
G1 X92.828 Y139.691 E4.95976
G1 X92.44 Y139.278 E4.97861
G1 X92.125 Y138.921 E4.99444
G1 X91.514 Y138.163 E5.02682
G1 X90.99 Y137.384 E5.05805
G1 X90.822 Y137.106 E5.06885
G1 X90.358 Y136.26 E5.10095
G1 X90.051 Y135.582 E5.1257
G1 X89.92 Y135.262 E5.1372
G1 X89.604 Y134.38 E5.16836
G1 X89.355 Y133.45 E5.20038
G1 X89.182 Y132.564 E5.23041
G1 X89.109 Y131.988 E5.24972
G1 X89.059 Y131.473 E5.26693
G1 X89.008 Y130.574 E5.29688
G1 X89 Y129.943 E5.31787
G1 X89 Y105.18 E6.14149
G1 X89.019 Y104.1 E6.17741
G1 X89.082 Y103.122 E6.21001
G1 X89.262 Y102.006 E6.24761
G1 X89.369 Y101.51 E6.26449
G1 X89.621 Y100.568 E6.29692
G1 X89.978 Y99.592 E6.33148
G1 X90.102 Y99.3 E6.34203
G1 X90.525 Y98.413 E6.37472
G1 X90.865 Y97.819 E6.39748
G1 X91.042 Y97.533 E6.40867
G1 X91.599 Y96.718 E6.4415
G1 X92.155 Y96.032 E6.47087
G1 X92.854 Y95.286 E6.50487
G0 F6000 X93.124 Y95.581
G1 F1200 X93.815 Y94.95 E6.536
G1 X94.544 Y94.359 E6.56721
G1 X95.317 Y93.837 E6.59823
G1 X95.577 Y93.678 E6.60837
G1 X96.367 Y93.241 E6.6384
G1 X97.044 Y92.932 E6.66315
G1 X97.351 Y92.806 E6.67419
G1 X98.231 Y92.488 E6.70531
G1 X99.049 Y92.266 E6.7335
G1 X99.99 Y92.078 E6.76542
G1 X100.529 Y92.01 E6.78349
G1 X101.046 Y91.959 E6.80076
G1 X101.931 Y91.908 E6.83025
G1 X102.567 Y91.9 E6.8514
G1 X132.473 Y91.901 E7.84608
G1 X133.373 Y91.917 E7.87602
G1 X134.313 Y91.977 E7.90735
G1 X135.41 Y92.153 E7.9443
G1 X135.887 Y92.256 E7.96053
G1 X136.794 Y92.497 E7.99175
G1 X137.714 Y92.831 E8.0243
G1 X138.001 Y92.951 E8.03465
G1 X138.818 Y93.335 E8.06467
G1 X139.478 Y93.711 E8.08994
G1 X139.768 Y93.89 E8.10127
G1 X140.542 Y94.418 E8.13243
G1 X141.187 Y94.941 E8.16005
G1 X141.87 Y95.573 E8.191
G1 X142.265 Y95.993 E8.21018
G1 X142.562 Y96.328 E8.22507
G1 X143.152 Y97.057 E8.25626
G1 X143.657 Y97.807 E8.28633
G1 X143.817 Y98.068 E8.29652
G1 X144.269 Y98.886 E8.3276
G1 X144.576 Y99.562 E8.35229
G1 X144.701 Y99.868 E8.36329
G1 X145.017 Y100.748 E8.39439
G1 X145.234 Y101.549 E8.42199
G1 X145.422 Y102.49 E8.45391
G1 X145.491 Y103.037 E8.47224
G1 X145.541 Y103.543 E8.48915
G1 X145.592 Y104.43 E8.51871
G1 X145.6 Y105.067 E8.53989
G1 X145.599 Y129.931 E9.36687
G1 X145.584 Y130.853 E9.39754
G1 X145.526 Y131.793 E9.42887
G1 X145.346 Y132.914 E9.46663
G1 X145.242 Y133.393 E9.48293
G1 X145.001 Y134.301 E9.51418
G1 X144.66 Y135.235 E9.54725
G1 X144.538 Y135.525 E9.55771
G1 X144.138 Y136.369 E9.58878
G1 X143.807 Y136.949 E9.61099
G1 X143.632 Y137.233 E9.62208
G1 X143.106 Y138.008 E9.65324
G1 X142.551 Y138.695 E9.68261
G1 X141.918 Y139.38 E9.71363
G1 X141.507 Y139.765 E9.73236
G1 X141.172 Y140.062 E9.74725
G1 X140.471 Y140.631 E9.77728
G1 X139.695 Y141.156 E9.80845
G1 X139.439 Y141.313 E9.81843
G1 X138.621 Y141.765 E9.84952
G1 X137.969 Y142.061 E9.87333
G1 X137.659 Y142.19 E9.8845
G1 X136.779 Y142.509 E9.91563
G1 X135.951 Y142.734 E9.94417
G1 X135.01 Y142.922 E9.97609
G1 X134.471 Y142.99 E9.99416
G1 X133.954 Y143.041 E10.01144
G1 X133.069 Y143.092 E10.04092
G1 X132.433 Y143.1 E10.06208
G1 X102.527 Y143.099 E11.05675
G1 X101.627 Y143.083 E11.08669
G1 X100.687 Y143.023 E11.11802
G1 X99.59 Y142.847 E11.15497
G1 X99.113 Y142.744 E11.1712
G1 X98.205 Y142.503 E11.20245
G1 X97.259 Y142.158 E11.23594
G1 X96.967 Y142.035 E11.24648
G1 X96.151 Y141.649 E11.2765
G1 X95.515 Y141.285 E11.30088
G1 X95.23 Y141.109 E11.31202
G1 X94.456 Y140.58 E11.3432
G1 X93.802 Y140.05 E11.3712
G1 X93.12 Y139.417 E11.40214
G1 X92.732 Y139.004 E11.42099
G1 X92.436 Y138.67 E11.43584
G1 X91.846 Y137.94 E11.46705
G1 X91.332 Y137.176 E11.49768
G1 X91.172 Y136.913 E11.50792
G1 X90.722 Y136.095 E11.53897
G1 X90.421 Y135.431 E11.56322
G1 X90.297 Y135.127 E11.57414
G1 X89.981 Y134.245 E11.6053
G1 X89.748 Y133.373 E11.63532
G1 X89.575 Y132.487 E11.66535
G1 X89.507 Y131.949 E11.68338
G1 X89.458 Y131.45 E11.70006
G1 X89.408 Y130.569 E11.72941
G1 X89.4 Y129.938 E11.7504
G1 X89.4 Y105.187 E12.57362
G1 X89.418 Y104.125 E12.60895
G1 X89.477 Y103.185 E12.64027
G1 X89.653 Y102.09 E12.67716
G1 X89.756 Y101.613 E12.69339
G1 X89.997 Y100.705 E12.72464
G1 X90.347 Y99.747 E12.75856
G1 X90.463 Y99.472 E12.76849
G1 X90.872 Y98.612 E12.80016
G1 X91.205 Y98.03 E12.82246
G1 X91.382 Y97.744 E12.83365
G1 X91.91 Y96.97 E12.86481
G1 X92.466 Y96.284 E12.89418
G1 X93.124 Y95.581 E12.92621
G0 F6000 X93.394 Y95.876
G1 F1200 X94.068 Y95.26 E12.95658
G1 X94.768 Y94.69 E12.9866
G1 X95.526 Y94.178 E13.01702
G1 X95.771 Y94.028 E13.02658
G1 X96.561 Y93.591 E13.05661
G1 X97.197 Y93.302 E13.07984
G1 X97.487 Y93.182 E13.09028
G1 X98.336 Y92.874 E13.12032
G1 X99.154 Y92.652 E13.14851
G1 X100.04 Y92.475 E13.17856
G1 X100.579 Y92.407 E13.19663
G1 X101.069 Y92.358 E13.21301
G1 X101.936 Y92.308 E13.24189
G1 X102.567 Y92.3 E13.26288
G1 X132.466 Y92.301 E14.25733
G1 X133.348 Y92.316 E14.28667
G1 X134.25 Y92.372 E14.31673
G1 X135.326 Y92.544 E14.35297
G1 X135.785 Y92.643 E14.36858
G1 X136.658 Y92.873 E14.39861
G1 X137.56 Y93.2 E14.43052
G1 X137.831 Y93.313 E14.44029
G1 X138.648 Y93.697 E14.47031
G1 X139.268 Y94.051 E14.49406
G1 X139.543 Y94.221 E14.50481
G1 X140.29 Y94.729 E14.53486
G1 X140.935 Y95.252 E14.56248
G1 X141.598 Y95.866 E14.59253
G1 X141.966 Y96.259 E14.61044
G1 X142.251 Y96.58 E14.62472
G1 X142.82 Y97.281 E14.65475
G1 X143.316 Y98.016 E14.68424
G1 X143.467 Y98.262 E14.69384
G1 X143.905 Y99.052 E14.72388
G1 X144.206 Y99.714 E14.74807
G1 X144.325 Y100.003 E14.75847
G1 X144.631 Y100.853 E14.78851
G1 X144.848 Y101.654 E14.81611
G1 X145.025 Y102.54 E14.84617
G1 X145.093 Y103.077 E14.86417
G1 X145.142 Y103.566 E14.88051
G1 X145.192 Y104.435 E14.90947
G1 X145.2 Y105.067 E14.93049
G1 X145.199 Y129.925 E15.75727
G1 X145.185 Y130.829 E15.78734
G1 X145.131 Y131.73 E15.81736
G1 X144.955 Y132.829 E15.85438
G1 X144.855 Y133.291 E15.8701
G1 X144.625 Y134.164 E15.90013
G1 X144.291 Y135.08 E15.93256
G1 X144.176 Y135.354 E15.94244
G1 X143.79 Y136.171 E15.97249
G1 X143.466 Y136.74 E15.99427
G1 X143.301 Y137.009 E16.00477
G1 X142.795 Y137.757 E16.0348
G1 X142.257 Y138.424 E16.0633
G1 X141.644 Y139.088 E16.09336
G1 X141.241 Y139.466 E16.11174
G1 X140.92 Y139.751 E16.12602
G1 X140.219 Y140.32 E16.15605
G1 X139.486 Y140.815 E16.18546
G1 X139.245 Y140.963 E16.19487
G1 X138.455 Y141.401 E16.22491
G1 X137.816 Y141.692 E16.24827
G1 X137.522 Y141.814 E16.25885
G1 X136.674 Y142.123 E16.28887
G1 X135.846 Y142.348 E16.31741
G1 X134.96 Y142.525 E16.34746
G1 X134.421 Y142.593 E16.36553
G1 X133.931 Y142.642 E16.38191
G1 X133.064 Y142.692 E16.41079
G1 X132.433 Y142.7 E16.43178
G1 X102.534 Y142.699 E17.42623
G1 X101.652 Y142.684 E17.45557
G1 X100.75 Y142.628 E17.48563
G1 X99.674 Y142.456 E17.52187
G1 X99.215 Y142.357 E17.53749
G1 X98.342 Y142.127 E17.56751
G1 X97.414 Y141.789 E17.60036
G1 X97.138 Y141.673 E17.61032
G1 X96.322 Y141.287 E17.64034
G1 X95.725 Y140.945 E17.66323
G1 X95.455 Y140.778 E17.67379
G1 X94.708 Y140.269 E17.70385
G1 X94.054 Y139.739 E17.73185
G1 X93.392 Y139.124 E17.7619
G1 X93.031 Y138.738 E17.77948
G1 X92.747 Y138.418 E17.79371
G1 X92.178 Y137.716 E17.82377
G1 X91.673 Y136.967 E17.85381
G1 X91.522 Y136.72 E17.86344
G1 X91.086 Y135.93 E17.89345
G1 X90.791 Y135.279 E17.91722
G1 X90.673 Y134.992 E17.92754
G1 X90.367 Y134.142 E17.95759
G1 X90.141 Y133.296 E17.98672
G1 X89.968 Y132.41 E18.01674
G1 X89.905 Y131.909 E18.03354
G1 X89.857 Y131.427 E18.04965
G1 X89.808 Y130.564 E18.0784
G1 X89.8 Y129.933 E18.09939
G1 X89.8 Y105.194 E18.92221
G1 X89.817 Y104.149 E18.95697
G1 X89.872 Y103.248 E18.98699
G1 X90.044 Y102.174 E19.02317
G1 X90.143 Y101.715 E19.03879
G1 X90.373 Y100.842 E19.06881
G1 X90.716 Y99.902 E19.10209
G1 X90.832 Y99.627 E19.11202
G1 X91.219 Y98.811 E19.14206
G1 X91.546 Y98.24 E19.16394
G1 X91.713 Y97.969 E19.17453
G1 X92.221 Y97.222 E19.20458
G1 X92.777 Y96.536 E19.23395
G1 X93.394 Y95.876 E19.264
G1 F2700 E14.264
;MESH:hopbanhrang.STL
G0 F6000 X101.574 Y104.779
G0 X103.148 Y108.095
;TYPE:WALL-INNER
G1 F2700 E19.264
G1 F1200 X102.466 Y107.858 E19.28801
G1 X101.913 Y107.414 E19.3116
G1 X101.608 Y106.924 E19.3308
G1 X101.421 Y106.302 E19.3524
G1 X101.393 Y105.73 E19.37145
G1 X101.551 Y105.207 E19.38962
G1 X101.735 Y104.866 E19.40251
G1 X101.908 Y104.629 E19.41226
G1 X102.192 Y104.356 E19.42537
G1 X102.476 Y104.162 E19.43681
G1 X102.956 Y103.948 E19.45429
G1 X103.498 Y103.9 E19.47238
G1 X103.86 Y103.93 E19.48446
G1 X104.24 Y104.037 E19.4976
G1 X104.521 Y104.16 E19.5078
G1 X104.973 Y104.468 E19.52599
G1 X105.26 Y104.858 E19.54209
G1 X105.449 Y105.208 E19.55532
G1 X105.602 Y105.714 E19.57291
G1 X105.583 Y106.264 E19.59121
G1 X105.475 Y106.774 E19.60855
G1 X105.193 Y107.243 E19.62675
G1 X104.959 Y107.51 E19.63856
G1 X104.52 Y107.862 E19.65727
G1 X104.029 Y108.035 E19.67459
G1 X103.687 Y108.095 E19.68614
G1 X103.148 Y108.095 E19.70407
G1 F2700 E14.70407
G0 F6000 X103.132 Y108.175
G0 X105.086 Y107.645
G0 X109.333 Y108.643
G0 X112.151 Y110.127
G1 F2700 E19.70407
G1 F1182.3 X111.496 Y110.239 E19.7265
G1 F1200 X111.087 Y110.192 E19.74019
G1 X110.503 Y109.985 E19.7608
G1 X109.967 Y109.56 E19.78355
G1 X109.631 Y108.997 E19.80536
G1 X109.515 Y108.605 E19.81895
G1 X109.489 Y107.991 E19.83939
G1 X109.685 Y107.338 E19.86207
G1 X109.887 Y107.023 E19.87452
G1 X110.344 Y106.575 E19.8958
G1 X110.753 Y106.375 E19.91094
G1 X111.304 Y106.233 E19.92987
G1 X111.884 Y106.278 E19.94922
G1 X112.321 Y106.407 E19.96437
G1 X112.85 Y106.767 E19.98566
G1 X113.108 Y107.069 E19.99887
G1 X113.383 Y107.618 E20.01929
G1 X113.472 Y107.998 E20.03227
G1 F1182.3 X113.444 Y108.649 E20.05427
G1 F1142.9 X113.208 Y109.283 E20.07789
G1 F1129.4 X112.745 Y109.8 E20.10242
G1 F1148.3 X112.151 Y110.127 E20.12599
G0 F6000 X112.364 Y110.125
G0 X112.909 Y109.941
G0 X112.297 Y111.907
G0 X112.103 Y112.809
G0 X112.065 Y113.73
G0 X112.181 Y114.646
G0 X112.451 Y115.528
G0 X112.866 Y116.353
G0 X113.416 Y117.094
G0 X114.082 Y117.733
G0 X114.701 Y118.15
G0 X116.781 Y119.143
G0 X117.503 Y119.101
G1 F1200 X116.548 Y119.021 E20.15786
G1 X115.63 Y118.779 E20.18944
G1 X114.755 Y118.382 E20.22139
G1 X113.984 Y117.859 E20.25238
G1 X113.281 Y117.182 E20.28484
G1 X112.731 Y116.437 E20.31564
G1 X112.3 Y115.588 E20.34731
G1 X112.019 Y114.657 E20.37966
G1 X111.904 Y113.742 E20.41033
G1 X111.943 Y112.789 E20.44205
G1 X112.145 Y111.861 E20.47364
G1 F1191.1 X112.495 Y110.977 E20.5055
G1 F1173.6 X113.008 Y110.138 E20.53894
G1 F1140.1 X113.576 Y109.484 E20.56927
G1 F1134.8 X114.366 Y108.855 E20.60478
G1 F1179.4 X115.189 Y108.396 E20.63668
G1 F1200 X116.091 Y108.077 E20.6685
G1 X117.047 Y107.919 E20.70073
G1 X117.503 Y107.902 E20.7159
G1 X117.95 Y107.919 E20.73078
G1 X118.911 Y108.077 E20.76317
G1 X119.811 Y108.396 E20.79493
G1 X120.636 Y108.856 E20.82635
G1 X121.378 Y109.453 E20.85802
G1 X121.999 Y110.166 E20.88947
G1 X122.502 Y110.973 E20.9211
G1 X122.855 Y111.852 E20.9526
G1 X123.055 Y112.792 E20.98457
G1 X123.094 Y113.734 E21.01593
G1 X122.978 Y114.67 E21.0473
G1 X122.7 Y115.583 E21.07904
G1 X122.296 Y116.391 E21.10909
G1 F1142.9 X121.97 Y116.878 E21.12955
G1 F1137.4 X121.698 Y117.214 E21.14472
G1 F1191.1 X121.02 Y117.858 E21.17606
G1 F1197 X120.229 Y118.392 E21.20788
G1 F1200 X119.396 Y118.772 E21.23833
G1 X118.434 Y119.021 E21.27138
G1 X117.503 Y119.101 E21.30246
G0 F6000 X116.781 Y119.143
G0 X120.303 Y118.536
G0 X121.762 Y117.441
G0 X121.675 Y119.918
G0 X121.895 Y120.173
G0 X123.94 Y120.807
G0 X123.52 Y120.778
G1 F1200 X122.85 Y120.659 E21.32509
G1 X122.249 Y120.319 E21.34806
G1 X121.821 Y119.837 E21.3695
G1 X121.566 Y119.219 E21.39174
G1 X121.516 Y118.826 E21.40491
G1 X121.597 Y118.199 E21.42594
G1 F1191.1 X121.883 Y117.605 E21.44803
G1 F1162.2 X122.34 Y117.122 E21.47087
G1 F1156.6 X123.011 Y116.823 E21.49621
G1 F1185.2 X123.681 Y116.769 E21.51885
G1 F1200 X124.057 Y116.842 E21.53159
G1 X124.643 Y117.1 E21.55289
G1 X125.107 Y117.551 E21.57441
G1 X125.321 Y117.883 E21.58755
G1 X125.501 Y118.485 E21.60844
G1 X125.523 Y118.877 E21.6215
G1 X125.385 Y119.515 E21.64321
G1 X125.044 Y120.071 E21.66491
G1 X124.759 Y120.345 E21.67806
G1 X124.201 Y120.657 E21.69932
G1 X123.52 Y120.778 E21.72232
G1 F2700 E16.72232
G0 F6000 X123.94 Y120.807
G0 X124.868 Y120.49
G0 X129.786 Y127.489
G0 X131.148 Y131.095
G1 F2700 E21.72232
G1 F1200 X130.466 Y130.858 E21.74634
G1 X129.913 Y130.414 E21.76993
G1 X129.609 Y129.926 E21.78905
G1 X129.416 Y129.302 E21.81077
