;FLAVOR:Marlin
;TIME:599
;Filament used: 0.197018m
;Layer height: 0.12
;MINX:95.263
;MINY:96
;MINZ:0.12
;MAXX:139.737
;MAXY:131.5
;MAXZ:2.04
;Generated with Cura_SteamEngine 5.4.0
M140 S50
M105
M190 S50
M104 S200
M105
M109 S200
M82 ;absolute extrusion mode
; Ender 3 Custom Start G-code
G92 E0 ; Reset Extruder
G28 ; Home all axes
G1 Z2.0 F3000 ; Move Z Axis up little to prevent scratching of Heat Bed
G1 X0.1 Y20 Z0.3 F5000.0 ; Move to start position
G1 X0.1 Y200.0 Z0.3 F1500.0 E15 ; Draw the first line
G1 X0.4 Y200.0 Z0.3 F5000.0 ; Move to side a little
G1 X0.4 Y20 Z0.3 F1500.0 E30 ; Draw the second line
G92 E0 ; Reset Extruder
G1 Z2.0 F3000 ; Move Z Axis up little to prevent scratching of Heat Bed
G1 X5 Y20 Z0.3 F5000.0 ; Move over to prevent blob squish
G92 E0
G92 E0
G1 F2700 E-5
;LAYER_COUNT:17
;LAYER:0
M107
G0 F6000 X99.409 Y100.058 Z0.12
;TYPE:SKIRT
G1 F2700 E0
G1 F1200 X100.007 Y99.509 E0.0162
G1 X100.404 Y99.173 E0.02658
G1 X101.167 Y98.583 E0.04583
G1 X101.775 Y98.183 E0.06035
G1 X102.195 Y97.928 E0.07016
G1 X103.043 Y97.462 E0.08947
G1 X103.7 Y97.166 E0.10385
G1 X104.167 Y96.975 E0.11391
G1 X105.075 Y96.647 E0.13318
G1 X105.748 Y96.462 E0.14711
G1 X106.24 Y96.344 E0.15721
G1 X107.193 Y96.162 E0.17657
G1 X108.041 Y96.071 E0.19359
G1 X108.675 Y96.028 E0.20627
G1 X109.387 Y96.005 E0.22049
G1 X125.054 Y96 E0.53314
G1 X126.117 Y96.02 E0.55435
G1 X126.863 Y96.061 E0.56926
G1 X127.243 Y96.096 E0.57688
G1 X128.197 Y96.226 E0.59609
G1 X128.818 Y96.357 E0.60876
G1 X129.302 Y96.476 E0.61871
G1 X130.17 Y96.728 E0.63674
G1 X130.889 Y96.998 E0.65207
G1 X131.371 Y97.198 E0.66248
G1 X132.217 Y97.595 E0.68113
G1 X132.905 Y97.987 E0.69693
G1 X133.315 Y98.24 E0.70655
G1 X134.061 Y98.748 E0.72456
G1 X134.598 Y99.173 E0.73823
G1 X134.966 Y99.484 E0.74784
G1 X135.665 Y100.131 E0.76685
G1 X136.217 Y100.731 E0.78312
G1 X136.563 Y101.136 E0.79375
G1 X137.137 Y101.874 E0.81241
G1 X137.567 Y102.525 E0.82798
G1 X137.822 Y102.945 E0.83778
G1 X138.288 Y103.793 E0.85709
G1 X138.584 Y104.45 E0.87147
G1 X138.775 Y104.917 E0.88154
G1 X139.103 Y105.825 E0.90081
G1 X139.287 Y106.494 E0.91465
G1 X139.404 Y106.98 E0.92463
G1 X139.587 Y107.93 E0.94394
G1 X139.673 Y108.71 E0.9596
G1 X139.711 Y109.229 E0.96998
G1 X139.737 Y110.222 E0.9898
G1 X139.715 Y111.336 E1.01204
G1 X139.693 Y111.964 E1.02458
G1 X139.676 Y114.475 E1.07469
G1 X139.737 Y117.311 E1.1313
G1 X139.706 Y118.371 E1.15246
G1 X139.666 Y118.865 E1.16235
G1 X139.545 Y119.823 E1.18162
G1 X139.402 Y120.523 E1.19588
G1 X139.285 Y121.01 E1.20588
G1 X139.017 Y121.938 E1.22515
G1 X138.761 Y122.62 E1.23969
G1 X138.554 Y123.116 E1.25041
G1 X138.157 Y123.963 E1.26908
G1 X137.763 Y124.655 E1.28497
G1 X137.51 Y125.065 E1.29459
G1 X137.002 Y125.811 E1.3126
G1 X136.577 Y126.348 E1.32627
G1 X136.266 Y126.716 E1.33588
G1 X135.619 Y127.415 E1.35489
G1 X135.029 Y127.959 E1.3709
G1 X134.625 Y128.303 E1.38149
G1 X133.861 Y128.898 E1.40082
G1 X133.209 Y129.327 E1.41639
G1 X132.783 Y129.585 E1.42633
G1 X131.966 Y130.032 E1.44492
G1 X131.302 Y130.334 E1.45947
G1 X130.838 Y130.524 E1.46948
G1 X129.96 Y130.84 E1.4881
G1 X129.252 Y131.038 E1.50277
G1 X128.76 Y131.156 E1.51287
G1 X127.807 Y131.338 E1.53223
G1 X126.959 Y131.429 E1.54925
G1 X126.325 Y131.472 E1.56193
G1 X125.613 Y131.495 E1.57615
G1 X109.946 Y131.5 E1.8888
G1 X108.883 Y131.48 E1.91002
G1 X108.12 Y131.438 E1.92527
G1 X107.746 Y131.403 E1.93276
G1 X106.793 Y131.271 E1.95196
G1 X106.22 Y131.15 E1.96365
G1 X105.748 Y131.036 E1.97334
G1 X104.804 Y130.764 E1.99294
G1 X104.12 Y130.507 E2.00753
G1 X103.624 Y130.3 E2.01825
G1 X102.778 Y129.903 E2.0369
G1 X102.097 Y129.515 E2.05254
G1 X101.684 Y129.26 E2.06223
G1 X100.912 Y128.733 E2.08088
G1 X100.356 Y128.289 E2.09508
G1 X99.969 Y127.959 E2.10523
G1 X99.308 Y127.343 E2.12326
G1 X98.754 Y126.738 E2.13963
G1 X98.42 Y126.343 E2.14995
G1 X97.83 Y125.579 E2.16922
G1 X97.424 Y124.962 E2.18396
G1 X97.167 Y124.539 E2.19383
G1 X96.732 Y123.747 E2.21187
G1 X96.416 Y123.052 E2.2271
G1 X96.226 Y122.588 E2.23711
G1 X95.91 Y121.71 E2.25573
G1 X95.712 Y121.002 E2.2704
G1 X95.594 Y120.51 E2.2805
G1 X95.412 Y119.56 E2.2998
G1 X95.325 Y118.77 E2.31566
G1 X95.288 Y118.256 E2.32595
G1 X95.263 Y117.277 E2.34549
G1 X95.282 Y116.274 E2.36551
G1 X95.307 Y115.551 E2.37995
G1 X95.324 Y113.025 E2.43036
G1 X95.263 Y110.189 E2.48696
G1 X95.294 Y109.13 E2.50811
G1 X95.334 Y108.635 E2.51802
G1 X95.455 Y107.679 E2.53725
G1 X95.599 Y106.971 E2.55167
G1 X95.715 Y106.486 E2.56162
G1 X95.964 Y105.617 E2.57966
G1 X96.245 Y104.868 E2.59562
G1 X96.446 Y104.384 E2.60608
G1 X96.843 Y103.537 E2.62475
G1 X97.237 Y102.845 E2.64064
G1 X97.49 Y102.435 E2.65025
G1 X97.998 Y101.689 E2.66826
G1 X98.439 Y101.133 E2.68243
G1 X98.771 Y100.743 E2.69265
G1 X99.409 Y100.058 E2.71133
G0 F6000 X99.702 Y100.331
G1 F1200 X100.266 Y99.814 E2.7266
G1 X100.649 Y99.489 E2.73662
G1 X101.387 Y98.917 E2.75525
G1 X101.983 Y98.525 E2.76949
G1 X102.388 Y98.278 E2.77896
G1 X103.207 Y97.827 E2.79761
G1 X103.852 Y97.536 E2.81174
G1 X104.303 Y97.351 E2.82146
G1 X105.181 Y97.033 E2.8401
G1 X105.842 Y96.851 E2.85378
G1 X106.316 Y96.737 E2.86351
G1 X107.236 Y96.56 E2.88221
G1 X108.068 Y96.47 E2.89891
G1 X108.688 Y96.428 E2.91131
G1 X109.387 Y96.405 E2.92526
G1 X125.047 Y96.4 E3.23778
G1 X126.095 Y96.419 E3.25869
G1 X126.827 Y96.459 E3.27332
G1 X127.189 Y96.492 E3.28058
G1 X128.114 Y96.617 E3.29921
G1 X128.723 Y96.746 E3.31163
G1 X129.19 Y96.86 E3.32122
G1 X130.058 Y97.112 E3.33926
G1 X130.736 Y97.367 E3.35371
G1 X131.201 Y97.56 E3.36376
G1 X132.047 Y97.957 E3.38241
G1 X132.695 Y98.327 E3.3973
G1 X133.09 Y98.571 E3.40657
G1 X133.836 Y99.079 E3.42458
G1 X134.34 Y99.479 E3.43742
G1 X134.694 Y99.778 E3.44667
G1 X135.393 Y100.425 E3.46567
G1 X135.913 Y100.99 E3.481
G1 X136.247 Y101.382 E3.49127
G1 X136.821 Y102.12 E3.50993
G1 X137.225 Y102.733 E3.52458
G1 X137.472 Y103.138 E3.53405
G1 X137.923 Y103.957 E3.55271
G1 X138.214 Y104.602 E3.56683
G1 X138.399 Y105.053 E3.57656
G1 X138.717 Y105.931 E3.59519
G1 X138.898 Y106.588 E3.60879
G1 X139.011 Y107.056 E3.6184
G1 X139.189 Y107.974 E3.63706
G1 X139.274 Y108.739 E3.65242
G1 X139.311 Y109.24 E3.66245
G1 X139.337 Y110.214 E3.68189
G1 X139.315 Y111.322 E3.70401
G1 X139.293 Y111.95 E3.71655
G1 X139.276 Y114.472 E3.76688
G1 X139.337 Y117.299 E3.82331
G1 X139.307 Y118.339 E3.84407
G1 X139.269 Y118.815 E3.8536
G1 X139.153 Y119.743 E3.87226
G1 X139.013 Y120.43 E3.88625
G1 X138.901 Y120.899 E3.89588
G1 X138.642 Y121.798 E3.91455
G1 X138.392 Y122.466 E3.92878
G1 X138.192 Y122.946 E3.93916
G1 X137.795 Y123.793 E3.95782
G1 X137.423 Y124.445 E3.9728
G1 X137.179 Y124.84 E3.98207
G1 X136.671 Y125.586 E4.00008
G1 X136.271 Y126.09 E4.01292
G1 X135.972 Y126.444 E4.02217
G1 X135.325 Y127.143 E4.04118
G1 X134.769 Y127.655 E4.05626
G1 X134.379 Y127.988 E4.06649
G1 X133.641 Y128.564 E4.08518
G1 X133.002 Y128.985 E4.10045
G1 X132.591 Y129.234 E4.11004
G1 X131.8 Y129.668 E4.12804
G1 X131.15 Y129.964 E4.14229
G1 X130.702 Y130.148 E4.15196
G1 X129.852 Y130.455 E4.16999
G1 X129.158 Y130.649 E4.18437
G1 X128.684 Y130.763 E4.1941
G1 X127.764 Y130.94 E4.2128
G1 X126.932 Y131.03 E4.2295
G1 X126.312 Y131.072 E4.2419
G1 X125.613 Y131.095 E4.25586
G1 X109.953 Y131.1 E4.56837
G1 X108.905 Y131.081 E4.58929
G1 X108.157 Y131.04 E4.60424
G1 X107.8 Y131.007 E4.61139
G1 X106.876 Y130.88 E4.63001
G1 X106.314 Y130.761 E4.64147
G1 X105.842 Y130.647 E4.65116
G1 X104.944 Y130.389 E4.6698
G1 X104.274 Y130.138 E4.68408
G1 X103.794 Y129.938 E4.69446
G1 X102.948 Y129.541 E4.71311
G1 X102.307 Y129.175 E4.72784
G1 X101.91 Y128.93 E4.73715
G1 X101.138 Y128.403 E4.7558
G1 X100.616 Y127.985 E4.76915
G1 X100.242 Y127.666 E4.77896
G1 X99.581 Y127.05 E4.79699
G1 X99.059 Y126.479 E4.81243
G1 X98.736 Y126.098 E4.8224
G1 X98.164 Y125.359 E4.84104
G1 X97.766 Y124.754 E4.8555
G1 X97.518 Y124.346 E4.86502
G1 X97.083 Y123.554 E4.88306
G1 X96.786 Y122.9 E4.89739
G1 X96.602 Y122.452 E4.90706
G1 X96.295 Y121.602 E4.92509
G1 X96.101 Y120.908 E4.93947
G1 X95.987 Y120.434 E4.9492
G1 X95.81 Y119.516 E4.96786
G1 X95.724 Y118.741 E4.98342
G1 X95.688 Y118.246 E4.99332
G1 X95.663 Y117.285 E5.01251
G1 X95.682 Y116.288 E5.03241
G1 X95.707 Y115.565 E5.04684
G1 X95.724 Y113.028 E5.09747
G1 X95.663 Y110.201 E5.1539
G1 X95.693 Y109.162 E5.17465
G1 X95.731 Y108.685 E5.18419
G1 X95.847 Y107.759 E5.20282
G1 X95.988 Y107.064 E5.21697
G1 X96.1 Y106.596 E5.22657
G1 X96.349 Y105.727 E5.24461
G1 X96.614 Y105.021 E5.25966
G1 X96.808 Y104.554 E5.26975
G1 X97.205 Y103.707 E5.28842
G1 X97.577 Y103.055 E5.3034
G1 X97.821 Y102.66 E5.31267
G1 X98.329 Y101.914 E5.33068
G1 X98.744 Y101.392 E5.34399
G1 X99.064 Y101.016 E5.35384
G1 X99.702 Y100.331 E5.37252
G0 F6000 X99.972 Y100.626
G1 F1200 X100.525 Y100.119 E5.38749
G1 X100.894 Y99.805 E5.39716
G1 X101.607 Y99.251 E5.41518
G1 X102.191 Y98.866 E5.42914
G1 X102.581 Y98.628 E5.43826
G1 X103.372 Y98.192 E5.45628
G1 X104.005 Y97.906 E5.47014
G1 X104.439 Y97.727 E5.47951
G1 X105.288 Y97.419 E5.49753
G1 X105.936 Y97.24 E5.51095
G1 X106.392 Y97.13 E5.52031
G1 X107.279 Y96.958 E5.53834
G1 X108.095 Y96.869 E5.55472
G1 X108.701 Y96.828 E5.56684
G1 X109.387 Y96.805 E5.58054
G1 X125.04 Y96.8 E5.89291
G1 X126.073 Y96.818 E5.91353
G1 X126.791 Y96.857 E5.92788
G1 X127.136 Y96.888 E5.93479
G1 X128.031 Y97.008 E5.95281
G1 X128.629 Y97.135 E5.96501
G1 X129.078 Y97.244 E5.97423
G1 X129.946 Y97.496 E5.99227
G1 X130.583 Y97.736 E6.00586
G1 X131.031 Y97.922 E6.01554
G1 X131.849 Y98.305 E6.03356
G1 X132.485 Y98.667 E6.04816
G1 X132.865 Y98.902 E6.05708
G1 X133.611 Y99.41 E6.07509
G1 X134.082 Y99.785 E6.08711
G1 X134.436 Y100.084 E6.09635
G1 X135.099 Y100.696 E6.11436
G1 X135.609 Y101.25 E6.12939
G1 X135.932 Y101.628 E6.13931
G1 X136.487 Y102.34 E6.15732
G1 X136.884 Y102.941 E6.1717
G1 X137.122 Y103.331 E6.18082
G1 X137.558 Y104.122 E6.19884
G1 X137.844 Y104.755 E6.2127
G1 X138.023 Y105.189 E6.22207
G1 X138.331 Y106.038 E6.24009
G1 X138.509 Y106.682 E6.25343
G1 X138.618 Y107.133 E6.26269
G1 X138.791 Y108.019 E6.2807
G1 X138.875 Y108.769 E6.29576
G1 X138.911 Y109.251 E6.30541
G1 X138.937 Y110.206 E6.32447
G1 X138.915 Y111.308 E6.34647
G1 X138.893 Y111.936 E6.35901
G1 X138.876 Y114.469 E6.40956
G1 X138.937 Y117.288 E6.46583
G1 X138.908 Y118.308 E6.48619
G1 X138.872 Y118.766 E6.49536
G1 X138.761 Y119.663 E6.5134
G1 X138.624 Y120.337 E6.52712
G1 X138.516 Y120.789 E6.5364
G1 X138.267 Y121.658 E6.55444
G1 X138.017 Y122.326 E6.56867
G1 X137.83 Y122.777 E6.57841
G1 X137.448 Y123.595 E6.59643
G1 X137.083 Y124.235 E6.61113
G1 X136.848 Y124.615 E6.62005
G1 X136.34 Y125.361 E6.63806
G1 X135.965 Y125.832 E6.65008
G1 X135.666 Y126.186 E6.65932
G1 X135.054 Y126.849 E6.67733
G1 X134.509 Y127.351 E6.69212
G1 X134.133 Y127.673 E6.70199
G1 X133.421 Y128.23 E6.72003
G1 X132.794 Y128.643 E6.73502
G1 X132.399 Y128.883 E6.74424
G1 X131.608 Y129.317 E6.76225
G1 X130.997 Y129.594 E6.77563
G1 X130.566 Y129.772 E6.78494
G1 X129.716 Y130.079 E6.80297
G1 X129.064 Y130.26 E6.81648
G1 X128.608 Y130.37 E6.82584
G1 X127.721 Y130.542 E6.84387
G1 X126.905 Y130.631 E6.86025
G1 X126.299 Y130.672 E6.87237
G1 X125.613 Y130.695 E6.88607
G1 X109.96 Y130.7 E7.19844
G1 X108.927 Y130.682 E7.21906
G1 X108.193 Y130.642 E7.23373
G1 X107.854 Y130.611 E7.24052
G1 X106.959 Y130.489 E7.25855
G1 X106.407 Y130.372 E7.26981
G1 X105.952 Y130.263 E7.27915
G1 X105.084 Y130.014 E7.29717
G1 X104.414 Y129.763 E7.31144
G1 X103.964 Y129.576 E7.32117
G1 X103.146 Y129.193 E7.33919
G1 X102.517 Y128.835 E7.35364
G1 X102.135 Y128.599 E7.3626
G1 X101.388 Y128.09 E7.38064
G1 X100.876 Y127.681 E7.39371
G1 X100.515 Y127.373 E7.40318
G1 X99.854 Y126.757 E7.42121
G1 X99.364 Y126.22 E7.43572
G1 X99.052 Y125.853 E7.44533
G1 X98.498 Y125.139 E7.46337
G1 X98.108 Y124.546 E7.47753
G1 X97.869 Y124.153 E7.48671
G1 X97.434 Y123.361 E7.50474
G1 X97.156 Y122.747 E7.5182
G1 X96.978 Y122.316 E7.5275
G1 X96.671 Y121.466 E7.54554
G1 X96.49 Y120.814 E7.55904
G1 X96.38 Y120.358 E7.5684
G1 X96.208 Y119.471 E7.58643
G1 X96.123 Y118.712 E7.60167
G1 X96.088 Y118.235 E7.61122
G1 X96.063 Y117.293 E7.63002
G1 X96.082 Y116.302 E7.6498
G1 X96.107 Y115.579 E7.66424
G1 X96.124 Y113.031 E7.71509
G1 X96.063 Y110.212 E7.77136
G1 X96.092 Y109.193 E7.7917
G1 X96.128 Y108.734 E7.80089
G1 X96.239 Y107.838 E7.81891
G1 X96.377 Y107.157 E7.83277
G1 X96.485 Y106.706 E7.84203
G1 X96.734 Y105.837 E7.86007
G1 X96.983 Y105.174 E7.8742
G1 X97.17 Y104.723 E7.88394
G1 X97.552 Y103.905 E7.90196
G1 X97.917 Y103.265 E7.91666
G1 X98.152 Y102.885 E7.92558
G1 X98.66 Y102.139 E7.94359
G1 X99.049 Y101.651 E7.95604
G1 X99.357 Y101.288 E7.96554
G1 X99.972 Y100.626 E7.98358
G1 F2700 E2.98358
;MESH:root short.STL(1)
G0 F6000 X106.34 Y107.779
G0 X108.387 Y111.912
;TYPE:WALL-INNER
G1 F2700 E7.98358
G1 F1395.3 X107.949 Y111.622 E7.99259
G1 F1399.4 X107.57 Y111.246 E8.00173
G1 F1391.3 X107.331 Y110.786 E8.01065
G1 F1395.3 X107.188 Y110.318 E8.01905
G1 F1387.3 X107.178 Y110.007 E8.02442
G1 F1383.3 X107.2 Y109.561 E8.03215
G1 F1391.3 X107.461 Y108.909 E8.04424
G1 F1383.3 X107.788 Y108.529 E8.05292
G1 X108.198 Y108.183 E8.06221
G1 F1387.3 X108.673 Y108.008 E8.07094
G1 F1383.3 X109.068 Y107.934 E8.0779
G1 F1363.6 X109.471 Y107.934 E8.08498
G1 F1304.3 X109.727 Y107.966 E8.08971
G1 F1233.9 X110.069 Y108.068 E8.09664
G1 F1203 X110.431 Y108.256 E8.10476
G1 X110.74 Y108.521 E8.11286
G1 F1200 X110.967 Y108.793 E8.11993
G1 X111.126 Y109.05 E8.12596
G1 X111.327 Y109.547 E8.13666
G1 X111.348 Y110.05 E8.14671
G1 X111.308 Y110.434 E8.15441
G1 X111.149 Y110.958 E8.16534
G1 X110.829 Y111.388 E8.17604
G1 X110.607 Y111.601 E8.18218
G1 X110.213 Y111.88 E8.19181
G1 F1203 X110.023 Y111.964 E8.19595
G1 F1253.3 X109.608 Y112.053 E8.20406
G1 F1337 X109.264 Y112.075 E8.21023
G1 F1375.4 X108.92 Y112.048 E8.21624
G1 F1383.3 X108.387 Y111.912 E8.22576
G0 F6000 X110.772 Y111.996
G1 F1200 X124.223 Y111.995 E8.49419
G1 X123.844 Y111.63 E8.50469
G1 X123.647 Y111.365 E8.51128
G1 X123.43 Y110.943 E8.52075
G1 X123.291 Y110.494 E8.53013
G1 X123.247 Y110.156 E8.53693
G1 X123.268 Y109.641 E8.54722
G1 X123.339 Y109.31 E8.55398
G1 X123.528 Y108.838 E8.56412
G1 X123.702 Y108.554 E8.57077
G1 X123.954 Y108.263 E8.57845
G1 X124.254 Y108.001 E8.5864
G1 X110.748 Y108.001 E8.85593
G1 X111.042 Y108.258 E8.86372
G1 X111.264 Y108.513 E8.87047
G1 X111.484 Y108.867 E8.87878
G1 X111.659 Y109.302 E8.88814
G1 X111.731 Y109.631 E8.89486
G1 X111.751 Y110.108 E8.90439
G1 X111.699 Y110.524 E8.91276
G1 X111.563 Y110.973 E8.92212
G1 X111.408 Y111.281 E8.929
G1 X111.129 Y111.654 E8.93829
G1 X110.772 Y111.996 E8.94816
G0 F6000 X108.872 Y112.394
G1 F1375.4 X109.267 Y112.425 E8.95506
G1 F1283.4 X110.078 Y112.401 E8.9702
G1 F1206 X124.919 Y112.4 E9.26488
G1 F1283.4 X125.74 Y112.425 E9.28021
G1 F1371.4 X126.128 Y112.394 E9.28701
G1 F1375.4 X126.498 Y112.306 E9.29363
G1 F1387.3 X126.844 Y112.166 E9.30007
G1 F1383.3 X127.18 Y111.956 E9.30693
G1 F1367.5 X127.462 Y111.713 E9.31345
G1 F1371.4 X127.707 Y111.426 E9.32004
G1 F1395.3 X127.917 Y111.094 E9.32678
G1 X128.055 Y110.745 E9.33322
G1 F1371.4 X128.143 Y110.378 E9.33981
G1 F1367.5 X128.173 Y110 E9.34645
G1 F1379.3 X128.147 Y109.621 E9.35305
G1 F1383.3 X128.055 Y109.249 E9.35968
G1 F1379.3 X127.913 Y108.908 E9.3661
G1 X127.707 Y108.57 E9.37297
G1 X127.463 Y108.287 E9.37946
G1 F1375.4 X127.18 Y108.044 E9.38595
G1 X126.842 Y107.838 E9.39284
G1 F1371.4 X126.498 Y107.695 E9.39935
G1 F1367.5 X126.065 Y107.592 E9.40714
G1 F1363.6 X125.612 Y107.576 E9.4151
G1 F1280 X125.098 Y107.599 E9.42473
G1 F1206 X110.149 Y107.6 E9.72156
G1 F1276.6 X109.26 Y107.576 E9.73824
G1 F1363.6 X108.872 Y107.607 E9.74508
