;FLAVOR:Marlin
;TIME:551
;Filament used: 0.185163m
;Layer height: 0.12
;MINX:86.512
;MINY:103.5
;MINZ:0.12
;MAXX:148.488
;MAXY:131.5
;MAXZ:2.04
;Generated with Cura_SteamEngine 5.4.0
M140 S50
M105
M190 S50
M104 S200
M105
M109 S200
M82 ;absolute extrusion mode
; Ender 3 Custom Start G-code
G92 E0 ; Reset Extruder
G28 ; Home all axes
G1 Z2.0 F3000 ; Move Z Axis up little to prevent scratching of Heat Bed
G1 X0.1 Y20 Z0.3 F5000.0 ; Move to start position
G1 X0.1 Y200.0 Z0.3 F1500.0 E15 ; Draw the first line
G1 X0.4 Y200.0 Z0.3 F5000.0 ; Move to side a little
G1 X0.4 Y20 Z0.3 F1500.0 E30 ; Draw the second line
G92 E0 ; Reset Extruder
G1 Z2.0 F3000 ; Move Z Axis up little to prevent scratching of Heat Bed
G1 X5 Y20 Z0.3 F5000.0 ; Move over to prevent blob squish
G92 E0
G92 E0
G1 F2700 E-5
;LAYER_COUNT:17
;LAYER:0
M107
G0 F6000 X91.257 Y107.009 Z0.12
;TYPE:SKIRT
G1 F2700 E0
G1 F1200 X91.654 Y106.673 E0.01038
G1 X92.417 Y106.083 E0.02963
G1 X93.025 Y105.683 E0.04415
G1 X93.445 Y105.428 E0.05396
G1 X94.293 Y104.962 E0.07327
G1 X94.95 Y104.666 E0.08765
G1 X95.417 Y104.475 E0.09771
G1 X96.325 Y104.147 E0.11698
G1 X96.998 Y103.962 E0.13091
G1 X97.49 Y103.844 E0.14101
G1 X98.443 Y103.662 E0.16037
G1 X99.291 Y103.571 E0.17739
G1 X99.925 Y103.528 E0.19007
G1 X100.638 Y103.505 E0.20431
G1 X133.805 Y103.5 E0.86619
G1 X134.867 Y103.52 E0.88739
G1 X135.613 Y103.561 E0.9023
G1 X135.993 Y103.596 E0.90991
G1 X136.947 Y103.726 E0.92913
G1 X137.568 Y103.857 E0.94179
G1 X138.052 Y103.976 E0.95174
G1 X138.92 Y104.228 E0.96977
G1 X139.639 Y104.498 E0.9851
G1 X140.121 Y104.698 E0.99551
G1 X140.967 Y105.095 E1.01416
G1 X141.655 Y105.487 E1.02997
G1 X142.065 Y105.74 E1.03958
G1 X142.811 Y106.248 E1.05759
G1 X143.348 Y106.673 E1.07126
G1 X143.716 Y106.984 E1.08087
G1 X144.415 Y107.631 E1.09988
G1 X144.967 Y108.231 E1.11615
G1 X145.313 Y108.636 E1.12678
G1 X145.887 Y109.374 E1.14544
G1 X146.317 Y110.025 E1.16101
G1 X146.572 Y110.445 E1.17081
G1 X147.038 Y111.293 E1.19012
G1 X147.334 Y111.95 E1.2045
G1 X147.525 Y112.417 E1.21457
G1 X147.853 Y113.325 E1.23384
G1 X148.037 Y113.994 E1.24769
G1 X148.154 Y114.48 E1.25766
G1 X148.337 Y115.431 E1.27699
G1 X148.422 Y116.206 E1.29255
G1 X148.46 Y116.722 E1.30287
G1 X148.488 Y117.685 E1.3221
G1 X148.456 Y118.371 E1.3358
G1 X148.416 Y118.865 E1.34569
G1 X148.295 Y119.823 E1.36496
G1 X148.148 Y120.543 E1.37963
G1 X148.027 Y121.038 E1.3898
G1 X147.757 Y121.966 E1.40908
G1 X147.492 Y122.667 E1.42404
G1 X147.293 Y123.142 E1.43432
G1 X146.895 Y123.987 E1.45296
G1 X146.516 Y124.65 E1.4682
G1 X146.264 Y125.059 E1.47778
G1 X145.756 Y125.805 E1.49579
G1 X145.327 Y126.348 E1.5096
G1 X145.016 Y126.716 E1.51922
G1 X144.369 Y127.415 E1.53823
G1 X143.779 Y127.959 E1.55424
G1 X143.375 Y128.303 E1.56483
G1 X142.611 Y128.898 E1.58416
G1 X141.959 Y129.327 E1.59973
G1 X141.533 Y129.585 E1.60967
G1 X140.716 Y130.032 E1.62825
G1 X140.052 Y130.334 E1.64281
G1 X139.588 Y130.524 E1.65282
G1 X138.71 Y130.84 E1.67144
G1 X138.002 Y131.038 E1.68611
G1 X137.51 Y131.156 E1.69621
G1 X136.557 Y131.338 E1.71557
G1 X135.709 Y131.429 E1.73259
G1 X135.075 Y131.472 E1.74527
G1 X134.362 Y131.495 E1.75951
G1 X101.195 Y131.5 E2.42139
G1 X100.133 Y131.48 E2.44259
G1 X99.37 Y131.438 E2.45784
G1 X98.996 Y131.403 E2.46533
G1 X98.043 Y131.271 E2.48453
G1 X97.47 Y131.15 E2.49622
G1 X96.998 Y131.036 E2.50591
G1 X96.054 Y130.764 E2.52551
G1 X95.37 Y130.507 E2.5401
G1 X94.874 Y130.3 E2.55082
G1 X94.028 Y129.903 E2.56947
G1 X93.347 Y129.515 E2.58511
G1 X92.934 Y129.26 E2.5948
G1 X92.162 Y128.733 E2.61345
G1 X91.606 Y128.289 E2.62765
G1 X91.219 Y127.959 E2.6378
G1 X90.558 Y127.343 E2.65583
G1 X90.004 Y126.738 E2.6722
G1 X89.67 Y126.343 E2.68253
G1 X89.08 Y125.579 E2.70179
G1 X88.674 Y124.962 E2.71653
G1 X88.417 Y124.539 E2.72641
G1 X87.982 Y123.747 E2.74444
G1 X87.683 Y123.089 E2.75886
G1 X87.495 Y122.64 E2.76857
G1 X87.184 Y121.792 E2.7866
G1 X86.967 Y121.019 E2.80262
G1 X86.845 Y120.512 E2.81303
G1 X86.662 Y119.56 E2.83237
G1 X86.576 Y118.776 E2.84811
G1 X86.539 Y118.268 E2.85828
G1 X86.512 Y117.304 E2.87752
G1 X86.544 Y116.63 E2.89099
G1 X86.584 Y116.135 E2.9009
G1 X86.705 Y115.179 E2.92013
G1 X86.849 Y114.471 E2.93455
G1 X86.965 Y113.986 E2.9445
G1 X87.224 Y113.086 E2.96319
G1 X87.493 Y112.369 E2.97847
G1 X87.701 Y111.872 E2.98922
G1 X88.113 Y110.998 E3.00851
G1 X88.468 Y110.374 E3.02283
G1 X88.736 Y109.941 E3.03299
G1 X89.244 Y109.195 E3.05101
G1 X89.689 Y108.633 E3.06531
G1 X90.021 Y108.243 E3.07553
G1 X90.659 Y107.558 E3.09421
G1 X91.257 Y107.009 E3.11041
G0 F6000 X91.516 Y107.314
G1 F1200 X91.899 Y106.989 E3.12044
G1 X92.637 Y106.417 E3.13907
G1 X93.233 Y106.025 E3.15331
G1 X93.638 Y105.778 E3.16277
G1 X94.457 Y105.327 E3.18143
G1 X95.102 Y105.036 E3.19555
G1 X95.553 Y104.851 E3.20528
G1 X96.431 Y104.533 E3.22392
G1 X97.092 Y104.351 E3.2376
G1 X97.566 Y104.237 E3.24733
G1 X98.486 Y104.06 E3.26602
G1 X99.318 Y103.97 E3.28272
G1 X99.938 Y103.928 E3.29512
G1 X100.638 Y103.905 E3.3091
G1 X133.798 Y103.9 E3.97084
G1 X134.845 Y103.919 E3.99174
G1 X135.577 Y103.959 E4.00637
G1 X135.939 Y103.992 E4.01363
G1 X136.864 Y104.117 E4.03225
G1 X137.473 Y104.246 E4.04468
G1 X137.94 Y104.36 E4.05427
G1 X138.808 Y104.612 E4.07231
G1 X139.486 Y104.867 E4.08676
G1 X139.951 Y105.06 E4.09681
G1 X140.797 Y105.457 E4.11546
G1 X141.445 Y105.827 E4.13035
G1 X141.84 Y106.071 E4.13961
G1 X142.586 Y106.579 E4.15763
G1 X143.09 Y106.979 E4.17047
G1 X143.444 Y107.278 E4.17971
G1 X144.143 Y107.925 E4.19872
G1 X144.663 Y108.49 E4.21405
G1 X144.997 Y108.882 E4.22432
G1 X145.571 Y109.62 E4.24298
G1 X145.975 Y110.233 E4.25763
G1 X146.222 Y110.638 E4.2671
G1 X146.673 Y111.457 E4.28576
G1 X146.964 Y112.102 E4.29988
G1 X147.149 Y112.553 E4.30961
G1 X147.467 Y113.431 E4.32824
G1 X147.648 Y114.088 E4.34184
G1 X147.761 Y114.556 E4.35145
G1 X147.939 Y115.475 E4.37013
G1 X148.023 Y116.236 E4.38541
G1 X148.06 Y116.734 E4.39537
G1 X148.088 Y117.667 E4.414
G1 X148.057 Y118.339 E4.42742
G1 X148.019 Y118.815 E4.43695
G1 X147.903 Y119.743 E4.45562
G1 X147.759 Y120.449 E4.47
G1 X147.643 Y120.927 E4.47981
G1 X147.383 Y121.825 E4.49847
G1 X147.123 Y122.513 E4.51315
G1 X146.931 Y122.972 E4.52308
G1 X146.547 Y123.789 E4.54109
G1 X146.176 Y124.44 E4.55604
G1 X145.933 Y124.834 E4.56528
G1 X145.425 Y125.58 E4.58329
G1 X145.021 Y126.09 E4.59628
G1 X144.722 Y126.444 E4.60552
G1 X144.075 Y127.143 E4.62453
G1 X143.519 Y127.655 E4.63961
G1 X143.129 Y127.988 E4.64985
G1 X142.391 Y128.564 E4.66853
G1 X141.752 Y128.985 E4.6838
G1 X141.341 Y129.234 E4.69339
G1 X140.55 Y129.668 E4.7114
G1 X139.9 Y129.964 E4.72565
G1 X139.452 Y130.148 E4.73531
G1 X138.602 Y130.455 E4.75335
G1 X137.908 Y130.649 E4.76773
G1 X137.434 Y130.763 E4.77746
G1 X136.514 Y130.94 E4.79616
G1 X135.682 Y131.03 E4.81286
G1 X135.062 Y131.072 E4.82526
G1 X134.362 Y131.095 E4.83923
G1 X101.202 Y131.1 E5.50098
G1 X100.155 Y131.081 E5.52188
G1 X99.407 Y131.04 E5.53682
G1 X99.05 Y131.007 E5.54398
G1 X98.126 Y130.88 E5.56259
G1 X97.564 Y130.761 E5.57406
G1 X97.092 Y130.647 E5.58375
G1 X96.194 Y130.389 E5.60239
G1 X95.524 Y130.138 E5.61667
G1 X95.044 Y129.938 E5.62705
G1 X94.198 Y129.541 E5.6457
G1 X93.557 Y129.175 E5.66043
G1 X93.16 Y128.93 E5.66974
G1 X92.388 Y128.403 E5.68839
G1 X91.866 Y127.985 E5.70174
G1 X91.492 Y127.666 E5.71154
G1 X90.831 Y127.05 E5.72958
G1 X90.309 Y126.479 E5.74501
G1 X89.986 Y126.098 E5.75498
G1 X89.414 Y125.359 E5.77363
G1 X89.016 Y124.754 E5.78808
G1 X88.768 Y124.346 E5.79761
G1 X88.333 Y123.554 E5.81564
G1 X88.052 Y122.935 E5.82921
G1 X87.871 Y122.502 E5.83858
G1 X87.56 Y121.654 E5.8566
G1 X87.356 Y120.925 E5.87171
G1 X87.238 Y120.436 E5.88175
G1 X87.06 Y119.516 E5.90045
G1 X86.975 Y118.747 E5.91589
G1 X86.939 Y118.256 E5.92571
G1 X86.912 Y117.323 E5.94434
G1 X86.943 Y116.662 E5.95754
G1 X86.981 Y116.185 E5.96709
G1 X87.097 Y115.259 E5.98572
G1 X87.238 Y114.564 E5.99987
G1 X87.35 Y114.096 E6.00947
G1 X87.599 Y113.227 E6.02751
G1 X87.868 Y112.51 E6.04279
G1 X88.063 Y112.042 E6.05291
G1 X88.461 Y111.196 E6.07157
G1 X88.816 Y110.572 E6.0859
G1 X89.067 Y110.166 E6.09542
G1 X89.575 Y109.42 E6.11343
G1 X89.994 Y108.892 E6.12688
G1 X90.314 Y108.516 E6.13674
G1 X90.952 Y107.831 E6.15542
G1 X91.516 Y107.314 E6.17069
G0 F6000 X91.775 Y107.619
G1 F1200 X92.144 Y107.305 E6.18035
G1 X92.857 Y106.751 E6.19837
G1 X93.441 Y106.366 E6.21233
G1 X93.831 Y106.128 E6.22145
G1 X94.622 Y105.692 E6.23947
G1 X95.255 Y105.406 E6.25334
G1 X95.689 Y105.227 E6.26271
G1 X96.538 Y104.919 E6.28073
G1 X97.186 Y104.74 E6.29414
G1 X97.642 Y104.63 E6.30351
G1 X98.529 Y104.458 E6.32154
G1 X99.345 Y104.369 E6.33792
G1 X99.951 Y104.328 E6.35004
G1 X100.638 Y104.305 E6.36376
G1 X133.791 Y104.3 E7.02536
G1 X134.823 Y104.318 E7.04596
G1 X135.541 Y104.357 E7.06031
G1 X135.886 Y104.388 E7.06722
G1 X136.781 Y104.508 E7.08524
G1 X137.379 Y104.635 E7.09744
G1 X137.828 Y104.744 E7.10666
G1 X138.696 Y104.996 E7.1247
G1 X139.333 Y105.236 E7.13828
G1 X139.781 Y105.422 E7.14796
G1 X140.599 Y105.805 E7.16599
G1 X141.235 Y106.167 E7.18059
G1 X141.615 Y106.402 E7.18951
G1 X142.361 Y106.91 E7.20752
G1 X142.832 Y107.285 E7.21953
G1 X143.186 Y107.584 E7.22878
G1 X143.849 Y108.196 E7.24679
G1 X144.359 Y108.75 E7.26181
G1 X144.682 Y109.128 E7.27174
G1 X145.237 Y109.84 E7.28975
G1 X145.634 Y110.441 E7.30412
G1 X145.872 Y110.831 E7.31324
G1 X146.308 Y111.622 E7.33127
G1 X146.594 Y112.255 E7.34513
G1 X146.773 Y112.689 E7.3545
G1 X147.081 Y113.538 E7.37252
G1 X147.259 Y114.182 E7.38585
G1 X147.368 Y114.633 E7.39511
G1 X147.541 Y115.519 E7.41313
G1 X147.624 Y116.266 E7.42813
G1 X147.66 Y116.746 E7.43773
G1 X147.688 Y117.649 E7.45576
G1 X147.658 Y118.308 E7.46893
G1 X147.622 Y118.766 E7.47809
G1 X147.511 Y119.663 E7.49613
G1 X147.37 Y120.355 E7.51023
G1 X147.259 Y120.816 E7.51969
G1 X147.009 Y121.684 E7.53771
G1 X146.754 Y122.359 E7.55211
G1 X146.569 Y122.802 E7.56169
G1 X146.185 Y123.619 E7.57971
G1 X145.836 Y124.23 E7.59375
G1 X145.602 Y124.609 E7.60264
G1 X145.094 Y125.355 E7.62065
G1 X144.715 Y125.832 E7.63281
G1 X144.416 Y126.186 E7.64206
G1 X143.804 Y126.849 E7.66006
G1 X143.259 Y127.351 E7.67485
G1 X142.883 Y127.673 E7.68473
G1 X142.171 Y128.23 E7.70277
G1 X141.544 Y128.643 E7.71775
G1 X141.149 Y128.883 E7.72697
G1 X140.358 Y129.317 E7.74498
G1 X139.747 Y129.594 E7.75837
G1 X139.316 Y129.772 E7.76767
G1 X138.466 Y130.079 E7.78571
G1 X137.814 Y130.26 E7.79921
G1 X137.358 Y130.37 E7.80857
G1 X136.471 Y130.542 E7.8266
G1 X135.655 Y130.631 E7.84298
G1 X135.049 Y130.672 E7.85511
G1 X134.362 Y130.695 E7.86882
G1 X101.209 Y130.7 E8.53043
G1 X100.177 Y130.682 E8.55102
G1 X99.443 Y130.642 E8.56569
G1 X99.104 Y130.611 E8.57249
G1 X98.209 Y130.489 E8.59051
G1 X97.657 Y130.372 E8.60177
G1 X97.202 Y130.263 E8.61111
G1 X96.334 Y130.014 E8.62913
G1 X95.664 Y129.763 E8.64341
G1 X95.214 Y129.576 E8.65313
G1 X94.396 Y129.193 E8.67116
G1 X93.767 Y128.835 E8.6856
G1 X93.385 Y128.599 E8.69456
G1 X92.638 Y128.09 E8.7126
G1 X92.126 Y127.681 E8.72568
G1 X91.765 Y127.373 E8.73515
G1 X91.104 Y126.757 E8.75318
G1 X90.614 Y126.22 E8.76769
G1 X90.302 Y125.853 E8.7773
G1 X89.748 Y125.139 E8.79533
G1 X89.358 Y124.546 E8.8095
G1 X89.119 Y124.153 E8.81868
G1 X88.684 Y123.361 E8.83671
G1 X88.421 Y122.781 E8.84942
G1 X88.247 Y122.364 E8.85844
G1 X87.936 Y121.516 E8.87646
G1 X87.745 Y120.831 E8.89065
G1 X87.631 Y120.359 E8.90034
G1 X87.458 Y119.472 E8.91838
G1 X87.374 Y118.717 E8.93354
G1 X87.339 Y118.244 E8.943
G1 X87.312 Y117.341 E8.96103
G1 X87.342 Y116.693 E8.97398
G1 X87.378 Y116.234 E8.98316
G1 X87.489 Y115.338 E9.00118
G1 X87.627 Y114.657 E9.01505
G1 X87.735 Y114.206 E9.0243
G1 X87.984 Y113.337 E9.04234
G1 X88.237 Y112.664 E9.05669
G1 X88.425 Y112.212 E9.06646
G1 X88.809 Y111.394 E9.08449
G1 X89.164 Y110.77 E9.09882
G1 X89.398 Y110.391 E9.10771
G1 X89.906 Y109.645 E9.12572
G1 X90.299 Y109.151 E9.13832
G1 X90.607 Y108.788 E9.14782
G1 X91.222 Y108.126 E9.16585
G1 X91.775 Y107.619 E9.18082
G1 F2700 E4.18082
;MESH:root.STL
G0 F6000 X97.59 Y115.279
G0 X99.637 Y119.412
;TYPE:WALL-INNER
G1 F2700 E9.18082
G1 F1395.3 X99.199 Y119.122 E9.18984
G1 F1399.4 X98.82 Y118.746 E9.19897
G1 F1391.3 X98.581 Y118.286 E9.20789
G1 F1395.3 X98.438 Y117.818 E9.21629
G1 F1387.3 X98.428 Y117.507 E9.22166
G1 F1383.3 X98.45 Y117.061 E9.22939
G1 F1391.3 X98.711 Y116.409 E9.24148
G1 F1383.3 X99.038 Y116.029 E9.25016
G1 X99.448 Y115.683 E9.25945
G1 F1387.3 X99.923 Y115.508 E9.26819
G1 F1383.3 X100.318 Y115.434 E9.27514
G1 F1363.6 X100.721 Y115.434 E9.28222
G1 F1304.3 X100.977 Y115.466 E9.28696
G1 F1233.9 X101.319 Y115.568 E9.29388
G1 F1203 X101.681 Y115.756 E9.302
G1 X101.99 Y116.021 E9.31011
G1 F1200 X102.217 Y116.293 E9.31718
G1 X102.376 Y116.55 E9.32321
G1 X102.577 Y117.047 E9.33391
G1 X102.598 Y117.55 E9.34395
G1 X102.558 Y117.934 E9.35166
G1 X102.399 Y118.458 E9.36259
G1 X102.079 Y118.888 E9.37328
G1 X101.857 Y119.101 E9.37942
G1 X101.463 Y119.38 E9.38906
G1 F1203 X101.273 Y119.464 E9.39319
G1 F1253.3 X100.858 Y119.553 E9.4013
G1 F1337 X100.514 Y119.575 E9.40748
G1 F1375.4 X100.17 Y119.548 E9.41348
G1 F1383.3 X99.637 Y119.412 E9.42301
G0 F6000 X115.973 Y119.495
G1 F1200 X115.594 Y119.13 E9.43351
G1 X115.397 Y118.865 E9.4401
G1 X115.18 Y118.443 E9.44957
G1 X115.041 Y117.994 E9.45895
G1 X114.997 Y117.656 E9.46575
G1 X115.018 Y117.141 E9.47603
G1 X115.089 Y116.81 E9.48279
G1 X115.278 Y116.338 E9.49294
G1 X115.452 Y116.054 E9.49958
G1 X115.704 Y115.763 E9.50726
G1 X116.004 Y115.501 E9.51521
G1 X101.998 Y115.501 E9.79472
G1 X102.292 Y115.758 E9.80251
G1 X102.514 Y116.013 E9.80926
G1 X102.734 Y116.367 E9.81758
G1 X102.909 Y116.802 E9.82693
G1 X102.981 Y117.131 E9.83365
G1 X103.001 Y117.608 E9.84318
G1 X102.949 Y118.024 E9.85155
G1 X102.813 Y118.473 E9.86091
G1 X102.658 Y118.781 E9.86779
G1 X102.379 Y119.154 E9.87709
G1 X102.022 Y119.496 E9.88695
G1 X115.973 Y119.495 E10.16536
G0 F6000 X116.746 Y119.69
G0 X117.433 Y119.925
G1 F1283.4 X118.328 Y119.901 E10.18207
G1 F1206 X133.669 Y119.9 E10.48668
G1 F1283.4 X134.49 Y119.925 E10.50201
G1 F1371.4 X134.878 Y119.894 E10.5088
G1 F1375.4 X135.248 Y119.806 E10.51543
G1 F1387.3 X135.594 Y119.666 E10.52187
G1 F1383.3 X135.93 Y119.456 E10.52873
G1 F1367.5 X136.212 Y119.213 E10.53525
G1 F1371.4 X136.457 Y118.926 E10.54184
G1 F1395.3 X136.667 Y118.594 E10.54858
G1 X136.805 Y118.245 E10.55502
G1 F1371.4 X136.893 Y117.878 E10.56161
G1 F1367.5 X136.923 Y117.5 E10.56825
G1 F1379.3 X136.897 Y117.121 E10.57484
G1 F1383.3 X136.805 Y116.749 E10.58148
G1 F1379.3 X136.663 Y116.408 E10.58789
G1 X136.457 Y116.07 E10.59476
G1 X136.213 Y115.787 E10.60125
G1 F1375.4 X135.93 Y115.544 E10.60775
G1 X135.592 Y115.338 E10.61464
G1 F1371.4 X135.248 Y115.195 E10.62114
G1 F1367.5 X134.815 Y115.092 E10.62894
G1 F1363.6 X134.362 Y115.076 E10.6369
G1 F1280 X133.848 Y115.099 E10.64652
G1 F1206 X118.399 Y115.1 E10.95328
G1 F1276.6 X117.362 Y115.076 E10.97274
G1 F1280 X116.848 Y115.099 E10.98237
G1 F1206 X101.399 Y115.1 E11.28913
G1 F1276.6 X100.51 Y115.076 E11.30581
G1 F1363.6 X100.122 Y115.107 E11.31265
G1 F1367.5 X99.752 Y115.195 E11.31931
G1 F1383.3 X99.406 Y115.334 E11.32576
G1 F1387.3 X99.07 Y115.544 E11.3326
G1 F1375.4 X98.786 Y115.786 E11.3391
G1 F1379.3 X98.543 Y116.07 E11.34559
G1 F1383.3 X98.336 Y116.407 E11.35243
G1 F1379.3 X98.195 Y116.749 E11.35886
G1 F1383.3 X98.107 Y117.095 E11.36504
G1 X98.078 Y117.513 E11.37229
G1 F1387.3 X98.102 Y117.879 E11.37862
G1 F1383.3 X98.195 Y118.244 E11.38514
G1 F1367.5 X98.339 Y118.592 E11.39174
G1 F1387.3 X98.547 Y118.94 E11.39874
G1 X98.788 Y119.213 E11.40502
G1 F1371.4 X99.071 Y119.456 E11.41154
G1 F1387.3 X99.406 Y119.666 E11.41836
