;FLAVOR:Marlin
;TIME:2604
;Filament used: 0.871037m
;Layer height: 0.12
;MINX:86.513
;MINY:88.5
;MINZ:0.12
;MAXX:148.487
;MAXY:146.5
;MAXZ:2.04
;Generated with Cura_SteamEngine 5.4.0
M140 S50
M105
M190 S50
M104 S200
M105
M109 S200
M82 ;absolute extrusion mode
; Ender 3 Custom Start G-code
G92 E0 ; Reset Extruder
G28 ; Home all axes
G1 Z2.0 F3000 ; Move Z Axis up little to prevent scratching of Heat Bed
G1 X0.1 Y20 Z0.3 F5000.0 ; Move to start position
G1 X0.1 Y200.0 Z0.3 F1500.0 E15 ; Draw the first line
G1 X0.4 Y200.0 Z0.3 F5000.0 ; Move to side a little
G1 X0.4 Y20 Z0.3 F1500.0 E30 ; Draw the second line
G92 E0 ; Reset Extruder
G1 Z2.0 F3000 ; Move Z Axis up little to prevent scratching of Heat Bed
G1 X5 Y20 Z0.3 F5000.0 ; Move over to prevent blob squish
G92 E0
G92 E0
G1 F2700 E-5
;LAYER_COUNT:17
;LAYER:0
M107
G0 F6000 X90.659 Y92.558 Z0.12
;TYPE:SKIRT
G1 F2700 E0
G1 F1200 X91.257 Y92.009 E0.0162
G1 X91.654 Y91.673 E0.02658
G1 X92.417 Y91.083 E0.04583
G1 X93.025 Y90.683 E0.06035
G1 X93.445 Y90.428 E0.07016
G1 X94.293 Y89.962 E0.08947
G1 X94.95 Y89.666 E0.10385
G1 X95.417 Y89.475 E0.11391
G1 X96.325 Y89.147 E0.13318
G1 X96.998 Y88.962 E0.14711
G1 X97.49 Y88.844 E0.15721
G1 X98.443 Y88.662 E0.17657
G1 X99.291 Y88.571 E0.19359
G1 X99.925 Y88.528 E0.20627
G1 X100.638 Y88.505 E0.22051
G1 X133.805 Y88.5 E0.88239
G1 X134.867 Y88.52 E0.90359
G1 X135.613 Y88.561 E0.9185
G1 X135.993 Y88.596 E0.92611
G1 X136.947 Y88.726 E0.94533
G1 X137.568 Y88.857 E0.95799
G1 X138.052 Y88.976 E0.96794
G1 X138.92 Y89.228 E0.98597
G1 X139.639 Y89.498 E1.0013
G1 X140.121 Y89.698 E1.01171
G1 X140.967 Y90.095 E1.03036
G1 X141.655 Y90.487 E1.04617
G1 X142.065 Y90.74 E1.05578
G1 X142.811 Y91.248 E1.07379
G1 X143.348 Y91.673 E1.08746
G1 X143.716 Y91.984 E1.09707
G1 X144.415 Y92.631 E1.11608
G1 X144.967 Y93.231 E1.13235
G1 X145.313 Y93.636 E1.14298
G1 X145.887 Y94.374 E1.16164
G1 X146.317 Y95.025 E1.17721
G1 X146.572 Y95.445 E1.18701
G1 X147.038 Y96.293 E1.20632
G1 X147.334 Y96.95 E1.2207
G1 X147.525 Y97.417 E1.23077
G1 X147.853 Y98.325 E1.25004
G1 X148.037 Y98.994 E1.26389
G1 X148.154 Y99.48 E1.27386
G1 X148.337 Y100.43 E1.29317
G1 X148.423 Y101.21 E1.30883
G1 X148.461 Y101.729 E1.31921
G1 X148.487 Y102.722 E1.33904
G1 X148.465 Y103.836 E1.36127
G1 X148.443 Y104.464 E1.37381
G1 X148.426 Y106.976 E1.42394
G1 X148.487 Y109.801 E1.48033
G1 X148.468 Y111.226 E1.50877
G1 X148.443 Y111.949 E1.52321
G1 X148.426 Y114.476 E1.57364
G1 X148.487 Y117.301 E1.63003
G1 X148.468 Y118.726 E1.65847
G1 X148.443 Y119.449 E1.6729
G1 X148.426 Y121.976 E1.72333
G1 X148.487 Y124.801 E1.77972
G1 X148.468 Y126.226 E1.80816
G1 X148.443 Y126.949 E1.8226
G1 X148.426 Y129.475 E1.87301
G1 X148.487 Y132.311 E1.92962
G1 X148.456 Y133.371 E1.95078
G1 X148.416 Y133.865 E1.96067
G1 X148.295 Y134.823 E1.97994
G1 X148.152 Y135.523 E1.9942
G1 X148.035 Y136.01 E2.0042
G1 X147.767 Y136.938 E2.02347
G1 X147.511 Y137.62 E2.03801
G1 X147.304 Y138.116 E2.04873
G1 X146.907 Y138.963 E2.0674
G1 X146.513 Y139.655 E2.08329
G1 X146.26 Y140.065 E2.09291
G1 X145.752 Y140.811 E2.11092
G1 X145.327 Y141.348 E2.12458
G1 X145.016 Y141.716 E2.1342
G1 X144.369 Y142.415 E2.15321
G1 X143.779 Y142.959 E2.16922
G1 X143.375 Y143.303 E2.17981
G1 X142.611 Y143.898 E2.19914
G1 X141.959 Y144.327 E2.21471
G1 X141.533 Y144.585 E2.22465
G1 X140.716 Y145.032 E2.24324
G1 X140.052 Y145.334 E2.25779
G1 X139.588 Y145.524 E2.2678
G1 X138.71 Y145.84 E2.28642
G1 X138.002 Y146.038 E2.30109
G1 X137.51 Y146.156 E2.31119
G1 X136.557 Y146.338 E2.33055
G1 X135.709 Y146.429 E2.34757
G1 X135.075 Y146.472 E2.36025
G1 X134.362 Y146.495 E2.37449
G1 X101.195 Y146.5 E3.03637
G1 X100.133 Y146.48 E3.05757
G1 X99.37 Y146.438 E3.07282
G1 X98.996 Y146.403 E3.08031
G1 X98.043 Y146.271 E3.09951
G1 X97.47 Y146.15 E3.1112
G1 X96.998 Y146.036 E3.12089
G1 X96.054 Y145.764 E3.14049
G1 X95.37 Y145.507 E3.15508
G1 X94.874 Y145.3 E3.1658
G1 X94.028 Y144.903 E3.18445
G1 X93.347 Y144.515 E3.20009
G1 X92.934 Y144.26 E3.20978
G1 X92.162 Y143.733 E3.22843
G1 X91.606 Y143.289 E3.24263
G1 X91.219 Y142.959 E3.25278
G1 X90.558 Y142.343 E3.27081
G1 X90.004 Y141.738 E3.28718
G1 X89.67 Y141.343 E3.29751
G1 X89.08 Y140.579 E3.31677
G1 X88.674 Y139.962 E3.33151
G1 X88.417 Y139.539 E3.34139
G1 X87.982 Y138.747 E3.35942
G1 X87.666 Y138.052 E3.37465
G1 X87.476 Y137.588 E3.38466
G1 X87.16 Y136.71 E3.40328
G1 X86.962 Y136.002 E3.41795
G1 X86.844 Y135.51 E3.42805
G1 X86.662 Y134.56 E3.44735
G1 X86.575 Y133.77 E3.46321
G1 X86.538 Y133.256 E3.4735
G1 X86.513 Y132.277 E3.49304
G1 X86.532 Y131.274 E3.51306
G1 X86.557 Y130.551 E3.5275
G1 X86.574 Y128.024 E3.57793
G1 X86.513 Y125.199 E3.63432
G1 X86.532 Y123.774 E3.66276
G1 X86.557 Y123.051 E3.67719
G1 X86.574 Y120.524 E3.72762
G1 X86.513 Y117.699 E3.78401
G1 X86.532 Y116.274 E3.81245
G1 X86.557 Y115.551 E3.82689
G1 X86.574 Y113.024 E3.87732
G1 X86.513 Y110.199 E3.93371
G1 X86.532 Y108.774 E3.96215
G1 X86.557 Y108.051 E3.97658
G1 X86.574 Y105.525 E4.027
G1 X86.513 Y102.689 E4.0836
G1 X86.544 Y101.63 E4.10475
G1 X86.584 Y101.135 E4.11466
G1 X86.705 Y100.179 E4.13389
G1 X86.849 Y99.471 E4.14831
G1 X86.965 Y98.986 E4.15826
G1 X87.214 Y98.117 E4.1763
G1 X87.495 Y97.368 E4.19226
G1 X87.696 Y96.884 E4.20272
G1 X88.093 Y96.037 E4.22139
G1 X88.487 Y95.345 E4.23728
G1 X88.74 Y94.935 E4.24689
G1 X89.248 Y94.189 E4.2649
G1 X89.689 Y93.633 E4.27907
G1 X90.021 Y93.243 E4.28929
G1 X90.659 Y92.558 E4.30797
G0 F6000 X90.952 Y92.831
G1 F1200 X91.516 Y92.314 E4.32324
G1 X91.899 Y91.989 E4.33326
G1 X92.637 Y91.417 E4.35189
G1 X93.233 Y91.025 E4.36613
G1 X93.638 Y90.778 E4.3756
G1 X94.457 Y90.327 E4.39425
G1 X95.102 Y90.036 E4.40837
G1 X95.553 Y89.851 E4.4181
G1 X96.431 Y89.533 E4.43674
G1 X97.092 Y89.351 E4.45042
G1 X97.566 Y89.237 E4.46015
G1 X98.486 Y89.06 E4.47885
G1 X99.318 Y88.97 E4.49555
G1 X99.938 Y88.928 E4.50795
G1 X100.638 Y88.905 E4.52192
G1 X133.798 Y88.9 E5.18367
G1 X134.845 Y88.919 E5.20456
G1 X135.577 Y88.959 E5.21919
G1 X135.939 Y88.992 E5.22645
G1 X136.864 Y89.117 E5.24508
G1 X137.473 Y89.246 E5.2575
G1 X137.94 Y89.36 E5.26709
G1 X138.808 Y89.612 E5.28513
G1 X139.486 Y89.867 E5.29958
G1 X139.951 Y90.06 E5.30963
G1 X140.797 Y90.457 E5.32828
G1 X141.445 Y90.827 E5.34317
G1 X141.84 Y91.071 E5.35244
G1 X142.586 Y91.579 E5.37045
G1 X143.09 Y91.979 E5.38329
G1 X143.444 Y92.278 E5.39254
G1 X144.143 Y92.925 E5.41154
G1 X144.663 Y93.49 E5.42687
G1 X144.997 Y93.882 E5.43714
G1 X145.571 Y94.62 E5.4558
G1 X145.975 Y95.233 E5.47045
G1 X146.222 Y95.638 E5.47992
G1 X146.673 Y96.457 E5.49858
G1 X146.964 Y97.102 E5.5127
G1 X147.149 Y97.553 E5.52243
G1 X147.467 Y98.431 E5.54106
G1 X147.648 Y99.088 E5.55466
G1 X147.761 Y99.556 E5.56427
G1 X147.939 Y100.474 E5.58293
G1 X148.024 Y101.239 E5.59829
G1 X148.061 Y101.74 E5.60832
G1 X148.087 Y102.714 E5.62776
G1 X148.065 Y103.822 E5.64988
G1 X148.043 Y104.45 E5.66242
G1 X148.026 Y106.973 E5.71277
G1 X148.087 Y109.796 E5.76912
G1 X148.068 Y111.212 E5.79738
G1 X148.043 Y111.935 E5.81181
G1 X148.026 Y114.473 E5.86246
G1 X148.087 Y117.296 E5.91881
G1 X148.068 Y118.712 E5.94707
G1 X148.043 Y119.435 E5.96151
G1 X148.026 Y121.973 E6.01216
G1 X148.087 Y124.796 E6.06851
G1 X148.068 Y126.212 E6.09677
G1 X148.043 Y126.935 E6.11121
G1 X148.026 Y129.472 E6.16183
G1 X148.087 Y132.299 E6.21826
G1 X148.057 Y133.339 E6.23903
G1 X148.019 Y133.815 E6.24856
G1 X147.903 Y134.743 E6.26722
G1 X147.763 Y135.43 E6.28121
G1 X147.651 Y135.899 E6.29083
G1 X147.392 Y136.798 E6.3095
G1 X147.142 Y137.466 E6.32374
G1 X146.942 Y137.946 E6.33411
G1 X146.545 Y138.793 E6.35278
G1 X146.173 Y139.445 E6.36776
G1 X145.929 Y139.84 E6.37703
G1 X145.421 Y140.586 E6.39504
G1 X145.021 Y141.09 E6.40788
G1 X144.722 Y141.444 E6.41713
G1 X144.075 Y142.143 E6.43613
G1 X143.519 Y142.655 E6.45122
G1 X143.129 Y142.988 E6.46145
G1 X142.391 Y143.564 E6.48013
G1 X141.752 Y143.985 E6.4954
G1 X141.341 Y144.234 E6.50499
G1 X140.55 Y144.668 E6.523
G1 X139.9 Y144.964 E6.53725
G1 X139.452 Y145.148 E6.54692
G1 X138.602 Y145.455 E6.56495
G1 X137.908 Y145.649 E6.57933
G1 X137.434 Y145.763 E6.58906
G1 X136.514 Y145.94 E6.60776
G1 X135.682 Y146.03 E6.62446
G1 X135.062 Y146.072 E6.63686
G1 X134.362 Y146.095 E6.65084
G1 X101.202 Y146.1 E7.31258
G1 X100.155 Y146.081 E7.33348
G1 X99.407 Y146.04 E7.34843
G1 X99.05 Y146.007 E7.35558
G1 X98.126 Y145.88 E7.3742
G1 X97.564 Y145.761 E7.38566
G1 X97.092 Y145.647 E7.39535
G1 X96.194 Y145.389 E7.41399
G1 X95.524 Y145.138 E7.42827
G1 X95.044 Y144.938 E7.43865
G1 X94.198 Y144.541 E7.4573
G1 X93.557 Y144.175 E7.47203
G1 X93.16 Y143.93 E7.48134
G1 X92.388 Y143.403 E7.49999
G1 X91.866 Y142.985 E7.51334
G1 X91.492 Y142.666 E7.52315
G1 X90.831 Y142.05 E7.54118
G1 X90.309 Y141.479 E7.55662
G1 X89.986 Y141.098 E7.56659
G1 X89.414 Y140.359 E7.58523
G1 X89.016 Y139.754 E7.59969
G1 X88.768 Y139.346 E7.60921
G1 X88.333 Y138.554 E7.62725
G1 X88.036 Y137.9 E7.64158
G1 X87.852 Y137.452 E7.65125
G1 X87.545 Y136.602 E7.66928
G1 X87.351 Y135.908 E7.68366
G1 X87.237 Y135.434 E7.69339
G1 X87.06 Y134.516 E7.71205
G1 X86.974 Y133.741 E7.72761
G1 X86.938 Y133.246 E7.73751
G1 X86.913 Y132.285 E7.7567
G1 X86.932 Y131.288 E7.7766
G1 X86.957 Y130.565 E7.79103
G1 X86.974 Y128.027 E7.84168
G1 X86.913 Y125.204 E7.89803
G1 X86.932 Y123.788 E7.92629
G1 X86.957 Y123.065 E7.94073
G1 X86.974 Y120.527 E7.99138
G1 X86.913 Y117.704 E8.04773
G1 X86.932 Y116.288 E8.07599
G1 X86.957 Y115.565 E8.09043
G1 X86.974 Y113.027 E8.14108
G1 X86.913 Y110.204 E8.19742
G1 X86.932 Y108.788 E8.22569
G1 X86.957 Y108.065 E8.24012
G1 X86.974 Y105.528 E8.29075
G1 X86.913 Y102.701 E8.34718
G1 X86.943 Y101.662 E8.36792
G1 X86.981 Y101.185 E8.37747
G1 X87.097 Y100.259 E8.3961
G1 X87.238 Y99.564 E8.41025
G1 X87.35 Y99.096 E8.41985
G1 X87.599 Y98.227 E8.43789
G1 X87.864 Y97.521 E8.45294
G1 X88.058 Y97.054 E8.46303
G1 X88.455 Y96.207 E8.4817
G1 X88.827 Y95.555 E8.49668
G1 X89.071 Y95.16 E8.50594
G1 X89.579 Y94.414 E8.52396
G1 X89.994 Y93.892 E8.53726
G1 X90.314 Y93.516 E8.54712
G1 X90.952 Y92.831 E8.5658
G0 F6000 X91.222 Y93.126
G1 F1200 X91.775 Y92.619 E8.58077
G1 X92.144 Y92.305 E8.59044
G1 X92.857 Y91.751 E8.60846
G1 X93.441 Y91.366 E8.62242
G1 X93.831 Y91.128 E8.63153
G1 X94.622 Y90.692 E8.64956
G1 X95.255 Y90.406 E8.66342
G1 X95.689 Y90.227 E8.67279
G1 X96.538 Y89.919 E8.69081
G1 X97.186 Y89.74 E8.70423
G1 X97.642 Y89.63 E8.71359
G1 X98.529 Y89.458 E8.73162
G1 X99.345 Y89.369 E8.748
G1 X99.951 Y89.328 E8.76012
G1 X100.638 Y89.305 E8.77384
G1 X133.791 Y89.3 E9.43544
G1 X134.823 Y89.318 E9.45604
G1 X135.541 Y89.357 E9.47039
G1 X135.886 Y89.388 E9.4773
G1 X136.781 Y89.508 E9.49532
G1 X137.379 Y89.635 E9.50752
G1 X137.828 Y89.744 E9.51674
G1 X138.696 Y89.996 E9.53478
G1 X139.333 Y90.236 E9.54837
G1 X139.781 Y90.422 E9.55805
G1 X140.599 Y90.805 E9.57607
G1 X141.235 Y91.167 E9.59067
G1 X141.615 Y91.402 E9.59959
G1 X142.361 Y91.91 E9.6176
G1 X142.832 Y92.285 E9.62962
G1 X143.186 Y92.584 E9.63886
G1 X143.849 Y93.196 E9.65687
G1 X144.359 Y93.75 E9.6719
G1 X144.682 Y94.128 E9.68182
G1 X145.237 Y94.84 E9.69983
G1 X145.634 Y95.441 E9.71421
G1 X145.872 Y95.831 E9.72333
G1 X146.308 Y96.622 E9.74135
G1 X146.594 Y97.255 E9.75521
G1 X146.773 Y97.689 E9.76458
G1 X147.081 Y98.538 E9.7826
G1 X147.259 Y99.182 E9.79594
G1 X147.368 Y99.633 E9.8052
G1 X147.541 Y100.519 E9.82321
G1 X147.625 Y101.269 E9.83827
G1 X147.661 Y101.751 E9.84792
G1 X147.687 Y102.706 E9.86698
G1 X147.665 Y103.808 E9.88898
G1 X147.643 Y104.436 E9.90152
G1 X147.626 Y106.97 E9.95209
G1 X147.687 Y109.791 E10.0084
G1 X147.668 Y111.198 E10.03648
G1 X147.643 Y111.921 E10.05092
G1 X147.626 Y114.47 E10.10179
G1 X147.687 Y117.291 E10.15809
G1 X147.668 Y118.698 E10.18618
G1 X147.643 Y119.421 E10.20061
G1 X147.626 Y121.97 E10.25148
G1 X147.687 Y124.791 E10.30779
G1 X147.668 Y126.198 E10.33587
G1 X147.643 Y126.921 E10.35031
G1 X147.626 Y129.469 E10.40116
G1 X147.687 Y132.288 E10.45743
G1 X147.658 Y133.308 E10.47779
G1 X147.622 Y133.766 E10.48696
G1 X147.511 Y134.663 E10.505
G1 X147.374 Y135.337 E10.51872
G1 X147.266 Y135.789 E10.528
G1 X147.017 Y136.658 E10.54603
G1 X146.767 Y137.326 E10.56027
G1 X146.58 Y137.777 E10.57001
G1 X146.198 Y138.595 E10.58803
G1 X145.833 Y139.235 E10.60273
G1 X145.598 Y139.615 E10.61165
G1 X145.09 Y140.361 E10.62966
G1 X144.715 Y140.832 E10.64167
G1 X144.416 Y141.186 E10.65092
G1 X143.804 Y141.849 E10.66893
G1 X143.259 Y142.351 E10.68371
G1 X142.883 Y142.673 E10.69359
G1 X142.171 Y143.23 E10.71163
G1 X141.544 Y143.643 E10.72661
G1 X141.149 Y143.883 E10.73584
G1 X140.358 Y144.317 E10.75384
G1 X139.747 Y144.594 E10.76723
G1 X139.316 Y144.772 E10.77654
G1 X138.466 Y145.079 E10.79457
G1 X137.814 Y145.26 E10.80808
G1 X137.358 Y145.37 E10.81744
G1 X136.471 Y145.542 E10.83547
G1 X135.655 Y145.631 E10.85185
G1 X135.049 Y145.672 E10.86397
G1 X134.362 Y145.695 E10.87769
G1 X101.209 Y145.7 E11.53929
G1 X100.177 Y145.682 E11.55989
G1 X99.443 Y145.642 E11.57456
G1 X99.104 Y145.611 E11.58135
G1 X98.209 Y145.489 E11.59938
G1 X97.657 Y145.372 E11.61064
G1 X97.202 Y145.263 E11.61997
G1 X96.334 Y145.014 E11.638
G1 X95.664 Y144.763 E11.65227
G1 X95.214 Y144.576 E11.662
G1 X94.396 Y144.193 E11.68002
G1 X93.767 Y143.835 E11.69447
G1 X93.385 Y143.599 E11.70343
G1 X92.638 Y143.09 E11.72147
G1 X92.126 Y142.681 E11.73454
G1 X91.765 Y142.373 E11.74401
G1 X91.104 Y141.757 E11.76204
G1 X90.614 Y141.22 E11.77655
G1 X90.302 Y140.853 E11.78616
G1 X89.748 Y140.139 E11.8042
G1 X89.358 Y139.546 E11.81836
G1 X89.119 Y139.153 E11.82754
G1 X88.684 Y138.361 E11.84557
G1 X88.406 Y137.747 E11.85902
G1 X88.228 Y137.316 E11.86833
G1 X87.921 Y136.466 E11.88637
G1 X87.74 Y135.814 E11.89987
G1 X87.63 Y135.358 E11.90923
G1 X87.458 Y134.471 E11.92726
G1 X87.373 Y133.712 E11.9425
G1 X87.338 Y133.235 E11.95205
G1 X87.313 Y132.293 E11.97085
G1 X87.332 Y131.302 E11.99063
G1 X87.357 Y130.579 E12.00507
G1 X87.374 Y128.03 E12.05594
G1 X87.313 Y125.209 E12.11225
G1 X87.332 Y123.802 E12.14033
G1 X87.357 Y123.079 E12.15476
G1 X87.374 Y120.53 E12.20563
G1 X87.313 Y117.709 E12.26194
G1 X87.332 Y116.302 E12.29002
G1 X87.357 Y115.579 E12.30446
G1 X87.374 Y113.03 E12.35533
G1 X87.313 Y110.209 E12.41164
G1 X87.332 Y108.802 E12.43972
G1 X87.357 Y108.079 E12.45416
G1 X87.374 Y105.531 E12.50501
G1 X87.313 Y102.712 E12.56128
G1 X87.342 Y101.693 E12.58162
G1 X87.378 Y101.234 E12.59081
G1 X87.489 Y100.338 E12.60882
G1 X87.627 Y99.657 E12.62269
G1 X87.735 Y99.206 E12.63195
G1 X87.984 Y98.337 E12.64998
G1 X88.233 Y97.674 E12.66412
G1 X88.42 Y97.223 E12.67386
G1 X88.802 Y96.405 E12.69188
G1 X89.167 Y95.765 E12.70658
G1 X89.402 Y95.385 E12.7155
G1 X89.91 Y94.639 E12.73351
G1 X90.299 Y94.151 E12.74596
G1 X90.607 Y93.788 E12.75546
G1 X91.222 Y93.126 E12.77349
G1 F2700 E7.77349
;MESH:root.STL(3)
G0 F6000 X97.278 Y100.761
G0 X99.637 Y104.412
;TYPE:WALL-INNER
G1 F2700 E12.77349
G1 F1395.3 X99.199 Y104.122 E12.78251
G1 F1399.4 X98.82 Y103.746 E12.79165
G1 F1391.3 X98.581 Y103.286 E12.80057
G1 F1395.3 X98.438 Y102.818 E12.80897
G1 F1387.3 X98.428 Y102.507 E12.81434
G1 F1383.3 X98.45 Y102.061 E12.82207
G1 F1391.3 X98.711 Y101.409 E12.83416
G1 F1383.3 X99.038 Y101.029 E12.84284
G1 X99.448 Y100.683 E12.85212
G1 F1387.3 X99.923 Y100.508 E12.86086
G1 F1383.3 X100.318 Y100.434 E12.86782
G1 F1363.6 X100.721 Y100.434 E12.8749
G1 F1304.3 X100.977 Y100.466 E12.87963
G1 F1233.9 X101.319 Y100.568 E12.88656
G1 F1203 X101.681 Y100.756 E12.89468
G1 X101.99 Y101.021 E12.90278
G1 F1200 X102.217 Y101.293 E12.90985
G1 X102.376 Y101.55 E12.91588
G1 X102.577 Y102.047 E12.92658
G1 X102.598 Y102.55 E12.93663
G1 X102.558 Y102.934 E12.94433
G1 X102.399 Y103.458 E12.95526
