;FLAVOR:Marlin
;TIME:2226
;Filament used: 0.763149m
;Layer height: 0.12
;MINX:94.381
;MINY:87.593
;MINZ:0.12
;MAXX:150.255
;MAXY:144.593
;MAXZ:3
;Generated with Cura_SteamEngine 5.4.0
M140 S50
M105
M190 S50
M104 S200
M105
M109 S200
M82 ;absolute extrusion mode
; Ender 3 Custom Start G-code
G92 E0 ; Reset Extruder
G28 ; Home all axes
G1 Z2.0 F3000 ; Move Z Axis up little to prevent scratching of Heat Bed
G1 X0.1 Y20 Z0.3 F5000.0 ; Move to start position
G1 X0.1 Y200.0 Z0.3 F1500.0 E15 ; Draw the first line
G1 X0.4 Y200.0 Z0.3 F5000.0 ; Move to side a little
G1 X0.4 Y20 Z0.3 F1500.0 E30 ; Draw the second line
G92 E0 ; Reset Extruder
G1 Z2.0 F3000 ; Move Z Axis up little to prevent scratching of Heat Bed
G1 X5 Y20 Z0.3 F5000.0 ; Move over to prevent blob squish
G92 E0
G92 E0
G1 F2700 E-5
;LAYER_COUNT:25
;LAYER:0
M107
G0 F6000 X97.112 Y91.358 Z0.12
;TYPE:SKIRT
G1 F2700 E0
G1 F1200 X97.837 Y90.606 E0.02085
G1 X98.573 Y89.969 E0.04027
G1 X99.305 Y89.439 E0.05831
G1 X100.202 Y88.904 E0.07915
G1 X101.08 Y88.483 E0.09858
G1 X101.993 Y88.141 E0.11804
G1 X102.93 Y87.882 E0.13744
G1 X103.897 Y87.704 E0.15706
G1 X105.036 Y87.608 E0.17987
G1 X105.693 Y87.593 E0.19298
G1 X124.685 Y87.593 E0.57199
G1 X125.567 Y87.606 E0.58959
G1 X126.539 Y87.665 E0.60902
G1 X127.502 Y87.811 E0.62846
G1 X128.45 Y88.042 E0.64793
G1 X129.306 Y88.33 E0.66596
G1 X130.262 Y88.749 E0.68679
G1 X131.115 Y89.22 E0.70623
G1 X131.922 Y89.765 E0.72567
G1 X132.677 Y90.378 E0.74507
G1 X133.377 Y91.056 E0.76452
G1 X133.997 Y91.773 E0.78344
G1 X134.814 Y92.956 E0.81213
G1 X135.3 Y93.766 E0.83098
G1 X136.663 Y95.981 E0.88288
G1 X138.037 Y98.074 E0.93284
G1 X139.499 Y100.167 E0.98379
G1 X140.971 Y102.154 E1.03314
G1 X142.546 Y104.16 E1.08404
G1 X144.147 Y106.086 E1.13402
G1 X146.289 Y108.505 E1.1985
G1 X146.608 Y108.882 E1.20835
G1 X147.057 Y109.439 E1.22263
G1 X147.657 Y110.266 E1.24302
G1 X148.167 Y111.091 E1.26238
G1 X148.391 Y111.488 E1.27147
G1 X148.911 Y112.545 E1.29498
G1 X149.147 Y113.104 E1.30709
G1 X149.593 Y114.376 E1.33399
G1 X149.728 Y114.859 E1.344
G1 X149.979 Y115.978 E1.36688
G1 X150.099 Y116.69 E1.38129
G1 X150.215 Y117.646 E1.40051
G1 X150.245 Y118.296 E1.41349
G1 X150.255 Y118.928 E1.42611
G1 X150.191 Y120.279 E1.4531
G1 X150.129 Y120.838 E1.46432
G1 X149.897 Y122.167 E1.49125
G1 X149.778 Y122.665 E1.50146
G1 X149.445 Y123.786 E1.5248
G1 X149.22 Y124.415 E1.53813
G1 X148.841 Y125.338 E1.55804
G1 X148.575 Y125.873 E1.56997
G1 X148.281 Y126.424 E1.58243
G1 X147.583 Y127.556 E1.60897
G1 X147.299 Y127.957 E1.61878
G1 X146.6 Y128.842 E1.64128
G1 X146.158 Y129.342 E1.6546
G1 X145.238 Y130.26 E1.68054
G1 X144.699 Y130.735 E1.69487
G1 X144.328 Y131.045 E1.70452
G1 X142.574 Y132.45 E1.74937
G1 X140.642 Y134.077 E1.79977
G1 X138.754 Y135.76 E1.85025
G1 X136.917 Y137.496 E1.90069
G1 X135.138 Y139.275 E1.95089
G1 X133.347 Y141.163 E2.00283
G1 X132.685 Y141.804 E2.02122
G1 X131.871 Y142.46 E2.04208
G1 X131.061 Y142.999 E2.06149
G1 X130.206 Y143.466 E2.08094
G1 X129.346 Y143.842 E2.09967
G1 X128.389 Y144.162 E2.1198
G1 X127.442 Y144.388 E2.13923
G1 X126.549 Y144.521 E2.15725
G1 X125.675 Y144.58 E2.17473
G1 X125.051 Y144.593 E2.18719
G1 X105.945 Y144.592 E2.56847
G1 X105.212 Y144.581 E2.5831
G1 X104.24 Y144.524 E2.60253
G1 X103.277 Y144.378 E2.62197
G1 X102.331 Y144.149 E2.64139
G1 X101.407 Y143.837 E2.66085
G1 X100.517 Y143.445 E2.68026
G1 X99.694 Y142.994 E2.69899
G1 X98.855 Y142.433 E2.71913
G1 X98.151 Y141.867 E2.73716
G1 X97.398 Y141.142 E2.75802
G1 X96.761 Y140.406 E2.77744
G1 X96.231 Y139.675 E2.79546
G1 X95.695 Y138.778 E2.81631
G1 X95.273 Y137.9 E2.83575
G1 X94.931 Y136.988 E2.85519
G1 X94.671 Y136.05 E2.87461
G1 X94.493 Y135.081 E2.89427
G1 X94.395 Y133.902 E2.91788
G1 X94.381 Y133.251 E2.93088
G1 X94.382 Y99.118 E3.61204
G1 X94.393 Y98.418 E3.62601
G1 X94.451 Y97.445 E3.64546
G1 X94.597 Y96.482 E3.6649
G1 X94.827 Y95.536 E3.68433
G1 X95.14 Y94.613 E3.70378
G1 X95.532 Y93.723 E3.72319
G1 X96.002 Y92.87 E3.74262
G1 X96.545 Y92.062 E3.76205
G1 X97.112 Y91.358 E3.78009
G0 F6000 X97.424 Y91.609
G1 F1200 X98.099 Y90.908 E3.79951
G1 X98.808 Y90.293 E3.81824
G1 X99.54 Y89.763 E3.83627
G1 X100.376 Y89.264 E3.8557
G1 X101.221 Y88.857 E3.87442
G1 X102.1 Y88.526 E3.89316
G1 X103.003 Y88.275 E3.91187
G1 X103.931 Y88.103 E3.9307
G1 X105.07 Y88.007 E3.95351
G1 X105.702 Y87.993 E3.96613
G1 X124.679 Y87.993 E4.34483
G1 X125.543 Y88.005 E4.36208
G1 X126.48 Y88.061 E4.38081
G1 X127.408 Y88.2 E4.39953
G1 X128.322 Y88.421 E4.4183
G1 X129.178 Y88.709 E4.43632
G1 X130.069 Y89.099 E4.45573
G1 X130.892 Y89.552 E4.47448
G1 X131.67 Y90.076 E4.4932
G1 X132.399 Y90.666 E4.51192
G1 X133.074 Y91.318 E4.53064
G1 X133.694 Y92.035 E4.54956
G1 X134.471 Y93.162 E4.57688
G1 X134.959 Y93.976 E4.59582
G1 X136.323 Y96.191 E4.64773
G1 X137.709 Y98.303 E4.69814
G1 X139.171 Y100.396 E4.74909
G1 X140.656 Y102.401 E4.79888
G1 X142.238 Y104.416 E4.85001
G1 X143.84 Y106.342 E4.9
G1 X145.984 Y108.763 E4.96453
G1 X146.297 Y109.133 E4.97421
G1 X146.733 Y109.674 E4.98807
G1 X147.333 Y110.501 E5.00846
G1 X147.819 Y111.287 E5.0269
G1 X148.032 Y111.665 E5.03556
G1 X148.542 Y112.701 E5.05861
G1 X148.778 Y113.26 E5.07071
G1 X149.208 Y114.484 E5.0966
G1 X149.338 Y114.947 E5.1062
G1 X149.585 Y116.045 E5.12866
G1 X149.702 Y116.738 E5.14269
G1 X149.815 Y117.665 E5.16132
G1 X149.845 Y118.303 E5.17407
G1 X149.855 Y118.909 E5.18616
G1 X149.793 Y120.235 E5.21265
G1 X149.731 Y120.794 E5.22388
G1 X149.508 Y122.074 E5.24981
G1 X149.394 Y122.551 E5.25959
G1 X149.068 Y123.651 E5.28249
G1 X148.843 Y124.28 E5.29582
G1 X148.483 Y125.16 E5.31479
G1 X148.222 Y125.685 E5.32649
G1 X147.94 Y126.214 E5.33846
G1 X147.256 Y127.325 E5.36449
G1 X146.985 Y127.709 E5.37387
G1 X146.3 Y128.577 E5.39594
G1 X145.875 Y129.059 E5.40876
G1 X144.955 Y129.977 E5.4347
G1 X144.443 Y130.428 E5.44832
G1 X144.078 Y130.733 E5.45781
G1 X142.316 Y132.144 E5.50286
G1 X140.384 Y133.771 E5.55326
G1 X138.479 Y135.469 E5.60419
G1 X136.642 Y137.205 E5.65463
G1 X134.855 Y138.992 E5.70506
G1 X133.057 Y140.888 E5.7572
G1 X132.407 Y141.516 E5.77524
G1 X131.649 Y142.127 E5.79467
G1 X130.869 Y142.648 E5.81339
G1 X130.046 Y143.099 E5.83212
G1 X129.186 Y143.475 E5.85085
G1 X128.296 Y143.773 E5.86958
G1 X127.383 Y143.992 E5.88831
G1 X126.49 Y144.125 E5.90633
G1 X125.667 Y144.18 E5.92279
G1 X125.051 Y144.193 E5.93509
G1 X105.951 Y144.192 E6.31625
G1 X105.235 Y144.182 E6.33054
G1 X104.299 Y144.128 E6.34925
G1 X103.37 Y143.989 E6.36799
G1 X102.458 Y143.77 E6.38671
G1 X101.568 Y143.471 E6.40545
G1 X100.709 Y143.094 E6.42417
G1 X99.886 Y142.643 E6.4429
G1 X99.106 Y142.121 E6.46163
G1 X98.402 Y141.555 E6.47965
G1 X97.7 Y140.88 E6.49909
G1 X97.085 Y140.171 E6.51782
G1 X96.555 Y139.44 E6.53584
G1 X96.055 Y138.604 E6.55528
G1 X95.647 Y137.759 E6.574
G1 X95.316 Y136.881 E6.59273
G1 X95.064 Y135.977 E6.61145
G1 X94.892 Y135.048 E6.63031
G1 X94.794 Y133.869 E6.65392
G1 X94.781 Y133.251 E6.66625
G1 X94.782 Y99.124 E7.3473
G1 X94.792 Y98.441 E7.36093
G1 X94.847 Y97.504 E7.37966
G1 X94.986 Y96.576 E7.39838
G1 X95.206 Y95.664 E7.41711
G1 X95.506 Y94.774 E7.43585
G1 X95.883 Y93.915 E7.45457
G1 X96.334 Y93.093 E7.47328
G1 X96.857 Y92.313 E7.49202
G1 X97.424 Y91.609 E7.51006
G0 F6000 X97.736 Y91.86
G1 F1200 X98.362 Y91.21 E7.52807
G1 X99.043 Y90.617 E7.54609
G1 X99.775 Y90.087 E7.56412
G1 X100.55 Y89.624 E7.58214
G1 X101.363 Y89.231 E7.60016
G1 X102.208 Y88.911 E7.61819
G1 X103.077 Y88.668 E7.6362
G1 X103.965 Y88.502 E7.65423
G1 X105.104 Y88.406 E7.67704
G1 X105.711 Y88.393 E7.68915
G1 X124.674 Y88.393 E8.06758
G1 X125.52 Y88.404 E8.08446
G1 X126.422 Y88.457 E8.1025
G1 X127.315 Y88.589 E8.12051
G1 X128.194 Y88.8 E8.13855
G1 X129.05 Y89.088 E8.15657
G1 X129.877 Y89.45 E8.17459
G1 X130.669 Y89.884 E8.19261
G1 X131.419 Y90.387 E8.21063
G1 X132.122 Y90.954 E8.22866
G1 X132.772 Y91.58 E8.24667
G1 X133.365 Y92.262 E8.2647
G1 X134.128 Y93.367 E8.2915
G1 X134.618 Y94.186 E8.31054
G1 X135.983 Y96.401 E8.36247
G1 X137.381 Y98.532 E8.41333
G1 X138.843 Y100.625 E8.46428
G1 X140.341 Y102.648 E8.51451
G1 X141.923 Y104.663 E8.56563
G1 X143.533 Y106.598 E8.61587
G1 X145.679 Y109.021 E8.68046
G1 X145.986 Y109.384 E8.68995
G1 X146.409 Y109.909 E8.7034
G1 X147.009 Y110.736 E8.72379
G1 X147.471 Y111.484 E8.74134
G1 X147.673 Y111.842 E8.74954
G1 X148.183 Y112.878 E8.77258
G1 X148.401 Y113.393 E8.78374
G1 X148.823 Y114.593 E8.80913
G1 X148.948 Y115.035 E8.8183
G1 X149.191 Y116.112 E8.84033
G1 X149.305 Y116.787 E8.85399
G1 X149.415 Y117.684 E8.87202
G1 X149.445 Y118.31 E8.88453
G1 X149.455 Y118.891 E8.89613
G1 X149.395 Y120.191 E8.9221
G1 X149.333 Y120.75 E8.93332
G1 X149.119 Y121.982 E8.95828
G1 X149.011 Y122.437 E8.96761
G1 X148.691 Y123.516 E8.99007
G1 X148.466 Y124.145 E9.0034
G1 X148.125 Y124.982 E9.02144
G1 X147.869 Y125.497 E9.03291
G1 X147.599 Y126.005 E9.04439
G1 X146.929 Y127.095 E9.06993
G1 X146.671 Y127.461 E9.07886
G1 X145.986 Y128.329 E9.10093
G1 X145.592 Y128.776 E9.11282
G1 X144.672 Y129.694 E9.13876
G1 X144.186 Y130.121 E9.15167
G1 X143.828 Y130.421 E9.16099
G1 X142.058 Y131.838 E9.20623
G1 X140.126 Y133.465 E9.25664
G1 X138.205 Y135.179 E9.30802
G1 X136.367 Y136.914 E9.35846
G1 X134.572 Y138.709 E9.40911
G1 X132.779 Y140.6 E9.46112
G1 X132.129 Y141.228 E9.47915
G1 X131.426 Y141.795 E9.49718
G1 X130.676 Y142.298 E9.5152
G1 X129.885 Y142.733 E9.53321
G1 X129.058 Y143.096 E9.55124
G1 X128.202 Y143.384 E9.56926
G1 X127.324 Y143.596 E9.58729
G1 X126.431 Y143.729 E9.6053
G1 X125.658 Y143.78 E9.62076
G1 X125.051 Y143.793 E9.63288
G1 X105.956 Y143.792 E10.01394
G1 X105.258 Y143.783 E10.02787
G1 X104.357 Y143.732 E10.04588
G1 X103.463 Y143.6 E10.06391
G1 X102.585 Y143.391 E10.08193
G1 X101.728 Y143.104 E10.09996
G1 X100.901 Y142.743 E10.11797
G1 X100.108 Y142.31 E10.136
G1 X99.357 Y141.809 E10.15402
G1 X98.653 Y141.243 E10.17204
G1 X98.002 Y140.617 E10.19007
G1 X97.409 Y139.936 E10.20809
G1 X96.879 Y139.205 E10.2261
G1 X96.415 Y138.43 E10.24413
G1 X96.021 Y137.617 E10.26216
G1 X95.701 Y136.773 E10.28017
G1 X95.457 Y135.903 E10.2982
G1 X95.291 Y135.015 E10.31623
G1 X95.194 Y133.86 E10.33936
G1 X95.181 Y133.251 E10.35152
G1 X95.182 Y99.129 E11.03246
G1 X95.191 Y98.464 E11.04573
G1 X95.243 Y97.562 E11.06376
G1 X95.375 Y96.669 E11.08178
G1 X95.585 Y95.791 E11.09979
G1 X95.872 Y94.934 E11.11783
G1 X96.234 Y94.107 E11.13584
G1 X96.667 Y93.315 E11.15386
G1 X97.169 Y92.564 E11.17188
G1 X97.736 Y91.86 E11.18992
G1 F2700 E6.18992
;MESH:dem do gia phoi co dinh part1.STL
G0 F6000 X112.243 Y103.07
G0 X112.701 Y104.54
G0 X112.901 Y104.979
G0 X113.175 Y105.385
G0 X113.51 Y105.732
G0 X113.893 Y106.014
G0 X114.287 Y106.212
G0 X115.767 Y106.572
;TYPE:WALL-INNER
G1 F2700 E11.18992
G1 F1200 X115.251 Y106.592 E11.20023
G1 X114.75 Y106.53 E11.2103
G1 X114.271 Y106.38 E11.22032
G1 X113.81 Y106.149 E11.23061
G1 X113.397 Y105.845 E11.24084
G1 X113.071 Y105.508 E11.2502
G1 X112.763 Y105.066 E11.26095
G1 X112.547 Y104.591 E11.27136
G1 X112.426 Y104.113 E11.2812
G1 X112.376 Y103.596 E11.29157
G1 X112.422 Y103.097 E11.30157
G1 X112.546 Y102.599 E11.31181
G1 X112.753 Y102.139 E11.32188
G1 X113.037 Y101.712 E11.33211
G1 X113.401 Y101.335 E11.34257
G1 X113.805 Y101.036 E11.3526
G1 X114.266 Y100.801 E11.36293
G1 X114.79 Y100.651 E11.3738
G1 X115.25 Y100.593 E11.38306
G1 X115.767 Y100.613 E11.39338
G1 X116.255 Y100.72 E11.40335
G1 X116.736 Y100.911 E11.41368
G1 X117.163 Y101.174 E11.42369
G1 X117.552 Y101.515 E11.43401
G1 X117.869 Y101.91 E11.44412
G1 X118.118 Y102.349 E11.45419
G1 X118.286 Y102.828 E11.46432
G1 X118.372 Y103.324 E11.47436
G1 X118.376 Y103.84 E11.48466
G1 X118.289 Y104.352 E11.49503
G1 X118.117 Y104.832 E11.5052
G1 X117.867 Y105.28 E11.51544
G1 X117.555 Y105.662 E11.52528
G1 X117.176 Y105.998 E11.53539
G1 X116.744 Y106.267 E11.54555
G1 X116.264 Y106.464 E11.5559
G1 X115.767 Y106.572 E11.56605
G0 F6000 X115.749 Y106.167
G1 F1200 X115.303 Y106.19 E11.57496
G1 X114.84 Y106.138 E11.58426
G1 X114.419 Y106.009 E11.59305
G1 X114.02 Y105.809 E11.60195
G1 X113.663 Y105.546 E11.6108
G1 X113.355 Y105.224 E11.61969
G1 X113.11 Y104.861 E11.62843
G1 X112.926 Y104.458 E11.63727
G1 X112.82 Y104.044 E11.6458
G1 X112.781 Y103.593 E11.65484
G1 X112.817 Y103.159 E11.66353
G1 X112.926 Y102.731 E11.67234
G1 X113.104 Y102.333 E11.68104
G1 X113.353 Y101.961 E11.68998
G1 X113.705 Y101.607 E11.69994
G1 X113.975 Y101.407 E11.70664
G1 X114.403 Y101.179 E11.71632
G1 X114.859 Y101.045 E11.72581
G1 X115.292 Y100.996 E11.7345
G1 X115.716 Y101.012 E11.74297
G1 X116.135 Y101.103 E11.75153
G1 X116.555 Y101.27 E11.76055
G1 X116.929 Y101.5 E11.76931
G1 X117.262 Y101.792 E11.77815
G1 X117.539 Y102.137 E11.78697
G1 X117.748 Y102.507 E11.79546
G1 X117.899 Y102.934 E11.80449
G1 X117.965 Y103.315 E11.81221
G1 X117.976 Y103.806 E11.82201
G1 X117.909 Y104.2 E11.82999
G1 X117.755 Y104.66 E11.83967
G1 X117.535 Y105.055 E11.84869
G1 X117.263 Y105.388 E11.85727
G1 X116.935 Y105.679 E11.86602
G1 X116.562 Y105.911 E11.87479
G1 X116.181 Y106.066 E11.883
G1 X115.749 Y106.167 E11.89185
G1 F2700 E6.89185
G0 F6000 X115.812 Y106.459
G0 X114.712 Y106.707
G0 X114.715 Y109.396
G0 X114.522 Y110.153
G0 X113.453 Y110.165
G0 X113.421 Y114.493
G0 X113.421 Y114.482
G1 F2700 E11.89185
G1 F1200 X113.161 Y114.288 E11.89832
G1 X112.954 Y113.971 E11.90588
G1 X112.881 Y113.728 E11.91094
G1 X112.881 Y110.461 E11.97614
G1 X112.998 Y110.122 E11.98329
G1 X113.148 Y109.912 E11.98844
G1 X113.435 Y109.697 E11.9956
G1 X113.794 Y109.596 E12.00304
G1 X116.997 Y109.593 E12.06696
G1 X117.309 Y109.688 E12.07347
G1 X117.596 Y109.893 E12.08051
G1 X117.763 Y110.121 E12.08615
G1 X117.881 Y110.476 E12.09361
G1 X117.881 Y113.728 E12.15851
G1 X117.808 Y113.971 E12.16358
G1 X117.601 Y114.288 E12.17113
G1 X117.341 Y114.482 E12.1776
G1 X117.132 Y114.562 E12.18207
G1 X116.881 Y114.593 E12.18712
G1 X113.794 Y114.59 E12.24872
G1 X113.421 Y114.482 E12.25647
G0 F6000 X113.421 Y114.493
G0 X117.157 Y114.493
G0 X117.157 Y114.126
G1 F1200 X116.881 Y114.193 E12.26214
G1 X113.828 Y114.191 E12.32307
G1 X113.605 Y114.126 E12.3277
G1 X113.449 Y114.01 E12.33158
G1 X113.325 Y113.82 E12.33611
G1 X113.281 Y113.67 E12.33923
G1 X113.281 Y110.519 E12.40211
G1 X113.401 Y110.232 E12.40832
G1 X113.558 Y110.086 E12.4126
G1 X113.829 Y109.995 E12.4183
G1 X116.899 Y109.993 E12.47957
G1 X117.138 Y110.05 E12.48447
G1 X117.361 Y110.232 E12.49021
G1 X117.481 Y110.525 E12.49653
G1 X117.481 Y113.67 E12.55929
G1 X117.437 Y113.82 E12.56241
G1 X117.313 Y114.01 E12.56694
G1 X117.157 Y114.126 E12.57082
G1 F2700 E7.57082
G0 F6000 X117.157 Y114.493
G0 X113.672 Y114.77
G0 X113.672 Y117.416
G0 X113.053 Y117.765
G0 X113.053 Y122.421
G0 X113.2 Y122.349
G1 F2700 E12.57082
G1 F1200 X112.998 Y122.064 E12.57779
G1 X112.881 Y121.721 E12.58502
G1 X112.881 Y118.458 E12.65014
G1 X112.954 Y118.215 E12.6552
G1 X113.161 Y117.898 E12.66276
G1 X113.421 Y117.704 E12.66923
G1 X113.794 Y117.596 E12.67698
G1 X116.881 Y117.593 E12.73859
G1 X117.132 Y117.624 E12.74363
G1 X117.341 Y117.704 E12.7481
G1 X117.601 Y117.898 E12.75457
G1 X117.808 Y118.215 E12.76213
G1 X117.881 Y118.458 E12.76719
G1 X117.881 Y121.725 E12.83239
G1 X117.764 Y122.065 E12.83956
G1 X117.525 Y122.359 E12.84713
G1 X117.305 Y122.5 E12.85234
G1 X116.902 Y122.593 E12.86059
G1 X113.874 Y122.594 E12.92102
G1 X113.585 Y122.549 E12.92686
G1 X113.2 Y122.349 E12.93552
G0 F6000 X113.755 Y122.194
G1 F1200 X113.512 Y122.067 E12.94099
G1 X113.351 Y121.876 E12.94597
G1 X113.281 Y121.669 E12.95033
G1 X113.281 Y118.513 E13.01331
G1 X113.325 Y118.366 E13.01638
G1 X113.449 Y118.176 E13.0209
G1 X113.605 Y118.06 E13.02478
G1 X113.828 Y117.995 E13.02942
